MyTube/Resources/LUTs/dusty_light.cube
LUT_3D_SIZE 6
0.157159 0.157159 0.157159
0.322861 0.167988 0.167988
0.477722 0.141881 0.141881
0.611279 0.112844 0.112844
0.775572 0.082140 0.082140
1.023930 -0.066555 -0.066555
0.142397 0.308176 0.142397
0.302582 0.302121 0.133067
0.464860 0.256045 0.123976
0.604894 0.227584 0.103781
0.773737 0.216440 0.075170
1.023111 0.214088 -0.074311
0.089426 0.447308 0.089426
0.242498 0.446438 0.088006
0.443415 0.443415 0.075160
0.591168 0.400040 0.050203
0.770104 0.388418 -0.073287
1.018833 0.401088 -0.081085
-0.079185 0.587959 -0.079185
0.209094 0.587073 -0.079859
0.395135 0.587177 -0.081075
0.585886 0.585886 -0.081080
0.764624 0.571395 -0.081086
1.007550 0.590884 -0.081100
-0.081094 0.759202 -0.081094
0.202835 0.758253 -0.081094
0.382054 0.757878 -0.081096
0.565058 0.755559 -0.081101
0.752178 0.752546 -0.081112
0.984741 0.775502 -0.081126
-0.081138 0.986085 -0.081138
0.207533 0.985733 -0.081139
0.389980 0.983274 -0.081140
0.576401 0.978233 -0.081142
0.764766 0.969367 -0.081153
0.961385 0.961385 -0.081163
0.170914 0.170914 0.325455
0.322032 0.163931 0.322643
0.476131 0.139845 0.264712
0.610558 0.111847 0.230794
0.775572 0.080740 0.217709
1.023848 -0.067526 0.215378
0.139172 0.306220 0.306220
0.300745 0.300730 0.300730
0.476190 0.282944 0.282944
0.634763 0.254930 0.254930
0.816066 0.221387 0.221387
1.022009 0.274147 0.274147
0.088552 0.446977 0.242800
0.240318 0.452721 0.240643
0.444998 0.444998 0.228702
0.611609 0.411526 0.219551
0.798568 0.397607 0.202329
1.017619 0.426108 0.273102
-0.079463 0.587887 0.209667
0.198163 0.595884 0.198176
0.395121 0.592705 0.196220
0.587484 0.587484 0.190962
0.776507 0.577561 0.185455
1.006265 0.602334 0.270876
-0.081094 0.759091 0.203172
0.178034 0.765448 0.178128
0.376668 0.763056 0.176652
0.564694 0.758966 0.174387
0.753541 0.753260 0.172235
0.983692 0.779533 0.266517
-0.081138 0.985964 0.207598
0.265548 0.984737 0.265637
0.414244 0.982418 0.266263
0.587798 0.977427 0.265290
0.769499 0.968678 0.263732
0.960871 0.960871 0.262130
0.166097 0.166097 0.496222
0.276488 0.159488 0.490698
0.469938 0.131215 0.469938
0.607381 0.107317 0.411674
0.774721 0.077949 0.393020
1.023446 -0.071658 0.403184
0.143534 0.266799 0.478685
0.294466 0.294118 0.481930
0.473085 0.276330 0.473085
0.632043 0.250346 0.431519
0.814254 0.218813 0.409153
1.021602 0.273935 0.427460
0.084511 0.445684 0.445684
0.235304 0.450393 0.450393
0.442595 0.442595 0.442595
0.615956 0.429435 0.429435
0.817022 0.408600 0.408600
1.016576 0.436764 0.436764
-0.080479 0.587634 0.395440
0.197383 0.594733 0.396409
0.399219 0.596320 0.399219
0.587943 0.587943 0.387708
0.793043 0.581420 0.368466
1.005099 0.607218 0.432743
-0.081094 0.758674 0.382510
0.177280 0.764152 0.377634
0.344992 0.770998 0.344992
0.555497 0.764172 0.337952
0.753931 0.754442 0.328129
0.982495 0.780903 0.424935
-0.081139 0.985167 0.390585
0.265548 0.983964 0.414310
0.424550 0.981256 0.424550
0.592438 0.976234 0.422816
0.770995 0.967246 0.419656
0.959535 0.959535 0.417110
0.152659 0.152659 0.646702
0.249604 0.147125 0.641850
0.422943 0.127558 0.622978
0.602113 0.099060 0.602113
0.772887 0.054041 0.578921
1.022607 -0.077381 0.598421
0.136745 0.243170 0.630898
0.285743 0.285073 0.646917
0.443148 0.269850 0.642126
0.626778 0.241819 0.626778
0.810514 0.213101 0.604388
1.020773 0.273704 0.609665
0.090645 0.404744 0.597497
0.236938 0.423642 0.624380
0.438101 0.438101 0.621545
0.613082 0.424971 0.613082
0.815141 0.404014 0.607170
1.015535 0.436393 0.612525
-0.081074 0.587239 0.587239
0.195047 0.592561 0.592561
0.395174 0.593482 0.593482
0.585102 0.585102 0.585102
0.795788 0.569578 0.569578
1.006423 0.580188 0.580188
-0.081096 0.757998 0.566855
0.176519 0.763449 0.567762
0.342538 0.768583 0.559484
0.532507 0.765799 0.532507
0.753113 0.753248 0.516510
0.982863 0.770248 0.568820
-0.081140 0.983523 0.578995
0.264745 0.982257 0.590536
0.423956 0.979575 0.594190
0.565375 0.975803 0.565375
0.759754 0.966579 0.561095
0.957656 0.957656 0.556661
0.131736 0.131736 0.817759
0.234466 0.127916 0.813842
0.405953 0.113021 0.797920
0.584207 0.090656 0.779890
0.771937 -0.039245 0.771005
1.021243 -0.081032 0.800450
0.120183 0.230593 0.804700
0.271989 0.271508 0.836992
0.431208 0.257500 0.834518
0.615931 0.230844 0.823378
0.804125 0.208120 0.803822
1.019339 0.273415 0.804107
0.083567 0.394162 0.775835
0.227191 0.414483 0.821030
0.431272 0.431272 0.824819
0.614471 0.418216 0.819990
0.812372 0.396633 0.811871
1.013800 0.435752 0.802613
-0.081076 0.573771 0.767493
0.192726 0.586215 0.787636
0.386474 0.595391 0.806101
0.580073 0.580073 0.801992
0.791199 0.564127 0.790963
1.004301 0.579150 0.784818
-0.081099 0.756730 0.756730
0.174971 0.760380 0.760380
0.338783 0.764995 0.764995
0.527019 0.761448 0.761448
0.748498 0.748868 0.748868
0.984805 0.744246 0.744246
-0.081140 0.980881 0.772774
0.264745 0.979564 0.777393
0.423000 0.976839 0.777095
0.563937 0.972806 0.763342
0.731654 0.965149 0.731442
0.953739 0.953739 0.724095
0.155843 0.155843 1.030081
0.242476 0.153577 1.029819
0.412580 0.137398 1.028591
0.602172 0.094010 1.026532
0.802217 -0.073134 1.023256
1.020178 -0.081084 1.020178
0.145744 0.239643 1.029212
0.287061 0.287163 1.027855
0.433651 0.284219 1.026867
0.612736 0.278342 1.025140
0.805927 0.274025 1.021384
1.018185 0.273214 1.018185
0.045086 0.406368 1.025888
0.276970 0.430167 1.024814
0.439454 0.439454 1.023188
0.615251 0.438198 1.020779
0.804997 0.437009 1.016373
1.012457 0.435320 1.012457
-0.081083 0.595822 1.017522
0.272010 0.607375 1.016071
0.435784 0.611666 1.013887
0.583524 0.583524 1.013307
0.787181 0.580138 1.007505
1.002617 0.578374 1.002617
-0.081112 0.784416 0.997849
0.267967 0.788078 0.996317
0.428808 0.788699 0.993686
0.573109 0.776214 0.991763
0.747626 0.748141 0.989553
0.982272 0.742595 0.982272
-0.081148 0.978708 0.978708
0.263940 0.977546 0.977546
0.422272 0.974682 0.974682
0.562721 0.970305 0.970305
0.729299 0.961514 0.961514
0.948695 0.948695 0.948695
