MyTube/Resources/LUTs/dusty_light.cube
LUT_3D_SIZE 16
0.157159 0.157159 0.157159
0.168271 0.156578 0.156578
0.253988 0.170845 0.170845
0.322861 0.167988 0.167988
0.381222 0.159955 0.159955
0.431717 0.151063 0.151063
0.477722 0.141881 0.141881
0.521632 0.132380 0.132380
0.565569 0.122696 0.122696
0.611279 0.112844 0.112844
0.660052 0.103053 0.103053
0.713793 0.093410 0.093410
0.775572 0.082140 0.082140
0.851209 0.027757 0.027757
0.943391 -0.066550 -0.066550
1.023930 -0.066555 -0.066555
0.155199 0.167081 0.155199
0.166569 0.166569 0.154610
0.251909 0.188585 0.166590
0.321020 0.184220 0.164467
0.379621 0.175911 0.157661
0.429437 0.166509 0.150565
0.476903 0.156873 0.141097
0.521093 0.147588 0.131885
0.565198 0.138693 0.122392
0.610992 0.130335 0.112669
0.659615 0.122408 0.102758
0.714417 0.116366 0.091815
0.775572 0.111413 0.082140
0.851209 0.094858 0.027757
0.943391 0.036862 -0.066551
1.023930 0.036846 -0.066555
0.163011 0.249744 0.163011
0.184357 0.249183 0.162184
0.246561 0.246547 0.158462
0.314582 0.237221 0.153848
0.372827 0.223888 0.148742
0.424356 0.210773 0.142972
0.472510 0.200368 0.135271
0.517617 0.190507 0.127358
0.562491 0.181929 0.118895
0.608990 0.174735 0.109957
0.657804 0.168144 0.100054
0.712381 0.164784 0.091303
0.774721 0.162330 0.082140
0.851209 0.156252 -0.020335
0.943163 0.150972 -0.069163
1.023698 0.150970 -0.069164
0.142397 0.308176 0.142397
0.165466 0.307886 0.142009
0.227191 0.305713 0.138657
0.302582 0.302121 0.133067
0.362896 0.285137 0.131363
0.415650 0.269458 0.128448
0.464860 0.256045 0.123976
0.511315 0.244557 0.118156
0.557343 0.235102 0.111388
0.604894 0.227584 0.103781
0.655255 0.222424 0.096263
0.710006 0.218132 0.084565
0.773737 0.216440 0.075170
0.851209 0.214088 -0.045589
0.942606 0.214089 -0.074303
1.023111 0.214088 -0.074311
0.122142 0.357343 0.122142
0.146716 0.357226 0.121995
0.207281 0.356501 0.119941
0.277500 0.354728 0.116134
0.351023 0.350882 0.110531
0.405782 0.332258 0.110792
0.456121 0.316089 0.109077
0.503782 0.302597 0.105718
0.551024 0.291764 0.101015
0.599747 0.283516 0.095094
0.650643 0.277132 0.088892
0.707527 0.273788 0.079570
0.772887 0.272579 0.037693
0.850274 0.271769 -0.064013
0.941661 0.275807 -0.079266
1.022149 0.275807 -0.079271
0.104563 0.402946 0.104563
0.131879 0.402904 0.104517
0.190806 0.402946 0.103119
0.257412 0.401162 0.100922
0.327074 0.399633 0.097706
0.397372 0.397184 0.093032
0.448510 0.378552 0.092707
0.496870 0.362688 0.091601
0.545063 0.350269 0.088823
0.594785 0.341068 0.084463
0.647229 0.334495 0.076907
0.705136 0.330284 0.045717
0.771937 0.329064 -0.051239
0.849368 0.331547 -0.075614
0.940399 0.338186 -0.081076
1.020798 0.338186 -0.081080
0.089426 0.447308 0.089426
0.121095 0.447288 0.089418
0.179080 0.447308 0.088721
0.242498 0.446438 0.088006
0.307372 0.445132 0.082828
0.374845 0.444474 0.078758
0.443415 0.443415 0.075160
0.491932 0.424794 0.075976
0.540562 0.410488 0.074555
0.591168 0.400040 0.050203
0.645300 0.392678 -0.027757
0.704207 0.389027 -0.055962
0.770104 0.388418 -0.073287
0.848411 0.392655 -0.081043
0.938592 0.401087 -0.081080
1.018833 0.401088 -0.081085
0.074851 0.491723 0.074851
0.113673 0.491722 0.074863
0.170795 0.491723 0.076240
0.230447 0.490869 0.055209
0.293886 0.490775 0.046815
0.357113 0.490055 0.021901
0.422503 0.489898 -0.041319
0.489201 0.489201 -0.058827
0.538335 0.472478 -0.058278
0.589367 0.460433 -0.063013
0.643923 0.451802 -0.070251
0.702354 0.448386 -0.077361
0.769131 0.448846 -0.081058
0.846522 0.454866 -0.081078
0.935852 0.464341 -0.081085
1.016059 0.464343 -0.081090
-0.054566 0.538454 -0.054566
0.055500 0.538454 -0.054566
0.155188 0.538454 -0.056382
0.217726 0.538454 -0.059680
0.280894 0.538223 -0.063713
0.342863 0.537723 -0.068626
0.406357 0.537321 -0.073467
0.470896 0.536874 -0.077723
0.536379 0.536379 -0.080496
0.587564 0.522737 -0.080715
0.641918 0.513609 -0.081074
0.700493 0.509643 -0.081076
0.767335 0.510230 -0.081080
0.843759 0.516349 -0.081084
0.932355 0.527705 -0.081088
1.012335 0.527707 -0.081093
-0.079185 0.587959 -0.079185
-0.041668 0.587959 -0.079185
0.143889 0.587073 -0.079365
0.209094 0.587073 -0.079859
0.271783 0.587177 -0.080446
0.332992 0.587748 -0.080982
0.395135 0.587177 -0.081075
0.458085 0.586865 -0.081076
0.521701 0.586415 -0.081078
0.585886 0.585886 -0.081080
0.640338 0.575811 -0.081081
0.698751 0.570844 -0.081083
0.764624 0.571395 -0.081086
0.841010 0.578480 -0.081088
0.927794 0.590883 -0.081095
1.007550 0.590884 -0.081100
-0.081078 0.640701 -0.081078
-0.048204 0.640701 -0.081078
0.140897 0.640701 -0.081078
0.205173 0.639749 -0.081079
0.267155 0.639800 -0.081080
0.327035 0.640240 -0.081080
0.387755 0.639800 -0.081081
0.449327 0.639364 -0.081083
0.511487 0.638831 -0.081084
0.574267 0.638159 -0.081086
0.637035 0.637067 -0.081089
0.695979 0.631895 -0.081088
0.761835 0.632046 -0.081091
0.837276 0.640077 -0.081096
0.922945 0.653591 -0.081107
1.001528 0.653594 -0.081111
-0.081086 0.697157 -0.081086
-0.049147 0.697157 -0.081086
0.139404 0.697157 -0.081087
0.203614 0.697157 -0.081087
0.263808 0.697028 -0.081088
0.322857 0.696522 -0.081088
0.383420 0.696103 -0.081089
0.444129 0.695597 -0.081088
0.505496 0.694985 -0.081089
0.567341 0.694269 -0.081092
0.629095 0.693198 -0.081094
0.692466 0.692438 -0.081096
0.756738 0.692655 -0.081099
0.832713 0.701650 -0.081108
0.916817 0.715260 -0.081116
0.994084 0.715264 -0.081117
-0.081094 0.759202 -0.081094
-0.048934 0.759202 -0.081094
0.139404 0.759202 -0.081094
0.202835 0.758253 -0.081094
0.262520 0.758720 -0.081095
0.322168 0.759043 -0.081095
0.382054 0.757878 -0.081096
0.442555 0.757216 -0.081098
0.503597 0.756385 -0.081099
0.565058 0.755559 -0.081101
0.626211 0.753682 -0.081107
0.689345 0.752782 -0.081110
0.752178 0.752546 -0.081112
0.826199 0.760807 -0.081115
0.909289 0.775499 -0.081122
0.984741 0.775502 -0.081126
-0.081111 0.829934 -0.081111
-0.047153 0.829934 -0.081111
0.140897 0.829934 -0.081111
0.204405 0.829004 -0.081111
0.263993 0.829178 -0.081111
0.323931 0.828352 -0.081112
0.384454 0.828248 -0.081113
0.445245 0.827434 -0.081115
0.506545 0.826474 -0.081116
0.568340 0.825254 -0.081117
0.630172 0.823706 -0.081116
0.693562 0.822525 -0.081119
0.754742 0.820472 -0.081121
0.818849 0.818674 -0.081124
0.899735 0.833455 -0.081131
0.972977 0.833458 -0.081136
-0.081123 0.910446 -0.081123
-0.043734 0.910446 -0.081123
0.143137 0.910446 -0.081123
0.207533 0.910446 -0.081124
0.268491 0.909054 -0.081124
0.329259 0.909836 -0.081125
0.389981 0.908136 -0.081125
0.451641 0.907033 -0.081127
0.513807 0.905696 -0.081128
0.576399 0.904005 -0.081129
0.639397 0.901955 -0.081132
0.702696 0.900290 -0.081134
0.764762 0.896993 -0.081136
0.828084 0.893224 -0.081139
0.890472 0.890472 -0.081139
0.961386 0.890478 -0.081148
-0.081138 0.986085 -0.081138
-0.043766 0.986085 -0.081138
0.143137 0.985911 -0.081138
0.207533 0.985733 -0.081139
0.268490 0.984998 -0.081139
0.329259 0.984370 -0.081139
0.389980 0.983274 -0.081140
0.451642 0.981865 -0.081139
0.513809 0.980240 -0.081140
0.576401 0.978233 -0.081142
0.639398 0.975843 -0.081148
0.702697 0.972872 -0.081150
0.764766 0.969367 -0.081153
0.828084 0.965150 -0.081155
0.890477 0.961385 -0.081158
0.961385 0.961385 -0.081163
0.156966 0.156966 0.168611
0.168101 0.156379 0.168101
0.253777 0.169900 0.190922
0.322678 0.167013 0.185765
0.380268 0.159881 0.177320
0.430823 0.151012 0.167658
0.477607 0.141803 0.157489
0.521614 0.132325 0.147963
0.565548 0.122665 0.138922
0.611269 0.112818 0.130462
0.660027 0.103027 0.122633
0.713873 0.094112 0.117217
0.775572 0.082140 0.111413
0.851209 0.027757 0.094858
0.943391 -0.066550 0.036860
1.023930 -0.066555 0.036848
0.154993 0.166910 0.166910
0.166396 0.166396 0.166396
0.253300 0.179167 0.179167
0.323311 0.176352 0.176352
0.381124 0.168393 0.168393
0.432082 0.159352 0.159352
0.479372 0.150193 0.150193
0.523768 0.140535 0.140535
0.568041 0.130706 0.130706
0.613973 0.120713 0.120713
0.662530 0.110903 0.110903
0.716594 0.100392 0.100392
0.778342 0.091308 0.091308
0.853051 0.083543 0.083543
0.943391 0.036864 0.036864
1.023930 0.036851 0.036851
0.162741 0.249554 0.184807
0.172490 0.249554 0.172490
0.247056 0.246357 0.168686
0.315874 0.232804 0.164861
0.375925 0.219350 0.158540
0.426868 0.207665 0.151610
0.474885 0.196634 0.144215
0.520144 0.186662 0.135882
0.565187 0.177786 0.127085
0.611738 0.170076 0.117880
0.661475 0.164024 0.108076
0.715139 0.159411 0.100488
0.777391 0.155507 0.089173
0.852179 0.154748 0.079343
0.943163 0.150973 0.029832
1.023698 0.150970 0.029812
0.142266 0.308076 0.165688
0.151138 0.308427 0.151138
0.223107 0.306435 0.148267
0.302659 0.302706 0.142135
0.363978 0.283953 0.140680
0.416963 0.267341 0.137508
0.466871 0.254072 0.132491
0.513537 0.242464 0.126392
0.559762 0.232811 0.119387
0.607383 0.225068 0.111616
0.657699 0.218572 0.104125
0.713490 0.214830 0.093637
0.775572 0.213297 0.085645
0.851209 0.214088 0.075170
0.942606 0.214089 -0.020590
1.023111 0.214088 -0.020622
0.122094 0.357279 0.146792
0.130314 0.357819 0.130314
0.200209 0.357279 0.128903
0.275069 0.354479 0.124413
0.352367 0.352446 0.118585
0.406618 0.331138 0.118797
0.457499 0.315170 0.117123
0.505514 0.301517 0.113682
0.553040 0.290531 0.108867
0.601884 0.282100 0.102948
0.653566 0.275917 0.096637
0.709736 0.272373 0.089382
0.773737 0.270960 0.081435
0.850274 0.272579 0.041991
0.941661 0.275807 -0.039052
1.022149 0.275807 -0.039066
0.104548 0.402918 0.131887
0.112410 0.403477 0.112410
0.183831 0.402918 0.111341
0.253796 0.401812 0.108060
0.325321 0.400159 0.104296
0.398476 0.398437 0.099595
0.449237 0.378253 0.100691
0.498041 0.362236 0.099595
0.546573 0.349690 0.096895
0.596459 0.340278 0.092815
0.648737 0.333892 0.086258
0.706909 0.329514 0.080831
0.771937 0.329898 0.062148
0.849368 0.332365 -0.027088
0.940399 0.338186 -0.043613
1.020798 0.338186 -0.043623
0.089423 0.447301 0.121096
0.097485 0.447898 0.097485
0.171400 0.448173 0.096466
0.238842 0.447033 0.095326
0.305847 0.446113 0.092159
0.374600 0.445217 0.087813
0.443547 0.443547 0.085093
0.492533 0.424702 0.085695
0.541510 0.410211 0.084654
0.592080 0.399760 0.082089
0.645378 0.392449 0.076962
0.704238 0.388754 0.049550
0.770104 0.388419 -0.012427
0.848411 0.392655 -0.043534
0.938592 0.401087 -0.043622
1.018833 0.401089 -0.043631
0.074855 0.491723 0.113671
0.084878 0.492273 0.084878
0.163182 0.491723 0.084314
0.227912 0.491420 0.084175
0.292181 0.490816 0.084975
0.356293 0.490921 0.081435
0.422404 0.489939 0.075897
0.489201 0.489201 0.049774
0.538335 0.472463 0.050467
0.589368 0.460484 0.043747
0.643924 0.451788 0.025923
0.702355 0.448436 -0.033445
0.769131 0.448846 -0.043572
0.846522 0.454866 -0.043619
0.935852 0.464341 -0.043635
1.016059 0.464343 -0.043644
-0.054566 0.538454 0.055500
0.054557 0.538454 0.054557
0.155188 0.538454 0.052652
0.217726 0.538454 0.048668
0.280059 0.538223 0.042532
0.342861 0.537723 0.031497
0.406360 0.537322 -0.014286
0.470880 0.536874 -0.034602
0.536379 0.536379 -0.042209
0.587563 0.522761 -0.042761
0.641918 0.513609 -0.043607
0.700493 0.509657 -0.043614
0.767335 0.510230 -0.043621
0.843759 0.516349 -0.043631
0.932355 0.527706 -0.043647
1.012335 0.527707 -0.043659
-0.079185 0.587959 -0.041668
-0.038829 0.587959 -0.038829
0.144639 0.587073 -0.039321
0.209094 0.587073 -0.040609
0.271833 0.587177 -0.042089
0.333030 0.587748 -0.043398
0.395174 0.587177 -0.043609
0.458112 0.586865 -0.043614
0.521720 0.586415 -0.043618
0.585886 0.585886 -0.043622
0.640354 0.575810 -0.043624
0.698751 0.570844 -0.043628
0.764624 0.571395 -0.043638
0.841010 0.578480 -0.043648
0.927794 0.590883 -0.043664
1.007550 0.590884 -0.043674
-0.081078 0.640701 -0.048204
-0.043619 0.640701 -0.043619
0.141641 0.640701 -0.043619
0.205968 0.639749 -0.043620
0.266472 0.639799 -0.043621
0.327140 0.640239 -0.043622
0.387892 0.639799 -0.043625
0.449432 0.639363 -0.043628
0.511578 0.638831 -0.043631
0.574309 0.638159 -0.043638
0.637108 0.637067 -0.043642
0.696038 0.631895 -0.043646
0.761835 0.632046 -0.043652
0.837276 0.640077 -0.043666
0.922945 0.653591 -0.043685
1.001528 0.653594 -0.043695
-0.081086 0.697157 -0.049147
-0.043638 0.697157 -0.043638
0.140897 0.697157 -0.043638
0.203614 0.697157 -0.043639
0.263949 0.697026 -0.043640
0.323804 0.696520 -0.043641
0.383555 0.696101 -0.043644
0.444249 0.695595 -0.043647
0.505575 0.694983 -0.043650
0.567385 0.694268 -0.043653
0.629134 0.693196 -0.043660
0.692482 0.692437 -0.043666
0.756738 0.693539 -0.043672
0.832713 0.701650 -0.043688
0.916817 0.715260 -0.043706
0.994084 0.715264 -0.043715
-0.081094 0.759202 -0.048934
-0.043661 0.759202 -0.043661
0.140146 0.759202 -0.043661
0.203614 0.758253 -0.043662
0.263516 0.758727 -0.043663
0.322290 0.759041 -0.043665
0.382292 0.757886 -0.043667
0.442659 0.757213 -0.043668
0.503647 0.756383 -0.043673
0.565146 0.755557 -0.043676
0.626290 0.753680 -0.043687
0.689355 0.752780 -0.043691
0.752178 0.752546 -0.043697
0.826199 0.760807 -0.043709
0.909289 0.775499 -0.043725
0.984741 0.775502 -0.043737
-0.081111 0.829934 -0.047153
-0.043691 0.829934 -0.043691
0.140897 0.829934 -0.043693
0.204405 0.829004 -0.043693
0.264088 0.829176 -0.043695
0.324826 0.828349 -0.043697
0.384566 0.828246 -0.043698
0.445294 0.827432 -0.043700
0.506652 0.826472 -0.043706
0.568382 0.825252 -0.043709
0.630292 0.823704 -0.043715
0.693550 0.822523 -0.043718
0.754742 0.820472 -0.043725
0.818849 0.818674 -0.043733
0.899735 0.833455 -0.043750
0.972977 0.833458 -0.043759
-0.081123 0.910446 -0.043734
-0.043731 0.910446 -0.043731
0.143137 0.910446 -0.043731
0.207533 0.910446 -0.043731
0.268491 0.909054 -0.043733
0.329259 0.909836 -0.043734
0.389981 0.908136 -0.043736
0.451641 0.907033 -0.043737
0.513808 0.905696 -0.043741
0.576399 0.904005 -0.043745
0.639397 0.901955 -0.043752
0.702696 0.900290 -0.043756
0.764762 0.896993 -0.043761
0.828084 0.893224 -0.043766
0.890472 0.890472 -0.043775
0.961386 0.890478 -0.043784
-0.081138 0.986085 -0.043766
-0.043764 0.986085 -0.043764
0.143137 0.985911 -0.043764
0.207533 0.985733 -0.043764
0.268491 0.984998 -0.043766
0.329259 0.984370 -0.043767
0.389981 0.983274 -0.043769
0.451642 0.981865 -0.043774
0.513809 0.980240 -0.043777
0.576401 0.978233 -0.043780
0.639398 0.975843 -0.043784
0.702697 0.972872 -0.043789
0.764766 0.969367 -0.043799
0.828084 0.965150 -0.043804
0.890477 0.961385 -0.043810
0.961385 0.961385 -0.043822
0.168072 0.168072 0.253082
0.188900 0.167476 0.252785
0.254269 0.170360 0.253885
0.321906 0.165967 0.244784
0.380687 0.158494 0.230945
0.430476 0.150525 0.216680
0.477152 0.141183 0.204165
0.521213 0.131837 0.193230
0.565266 0.122301 0.183846
0.611010 0.112538 0.176003
0.659731 0.102670 0.170019
0.713526 0.092410 0.165287
0.775572 0.081435 0.162327
0.851209 0.022754 0.157780
0.943361 -0.066819 0.151733
1.023908 -0.066826 0.151731
0.165918 0.187677 0.252019
0.176426 0.176426 0.251993
0.252815 0.178441 0.252823
0.322553 0.174877 0.240009
0.380677 0.167749 0.226269
0.431699 0.158868 0.212833
0.478882 0.149561 0.200363
0.523359 0.140042 0.189445
0.567714 0.130340 0.179834
0.613710 0.120417 0.171527
0.662219 0.110537 0.164519
0.716237 0.100818 0.159335
0.778342 0.090586 0.156261
0.853051 0.081435 0.154744
0.943361 0.036237 0.151734
1.023908 0.036222 0.151731
0.161563 0.248754 0.248754
0.171113 0.248640 0.248640
0.245031 0.244762 0.244762
0.316020 0.241449 0.241449
0.376791 0.233801 0.233801
0.431791 0.225170 0.225170
0.483506 0.215619 0.215619
0.532220 0.205493 0.205493
0.580210 0.194999 0.194999
0.629335 0.184193 0.184193
0.680332 0.173394 0.173394
0.736838 0.162738 0.162738
0.799466 0.152138 0.152138
0.874404 0.142373 0.142373
0.942740 0.199704 0.199704
1.023212 0.199702 0.199702
0.141227 0.307464 0.228892
0.150092 0.307794 0.223816
0.225975 0.306642 0.225716
0.302298 0.302868 0.219894
0.367266 0.288926 0.215589
0.423768 0.276303 0.209993
0.476345 0.264619 0.203057
0.525769 0.253740 0.195143
0.574458 0.243599 0.186513
0.624286 0.234257 0.177244
0.676261 0.226137 0.168082
0.733411 0.219221 0.158166
0.796744 0.213517 0.149030
0.871626 0.209650 0.140027
0.942133 0.244396 0.198819
1.022626 0.244459 0.198814
0.121429 0.356953 0.207664
0.129668 0.357492 0.201207
0.201835 0.358614 0.201397
0.275980 0.356606 0.198065
0.352113 0.352029 0.190675
0.412308 0.335252 0.190276
0.465828 0.321340 0.186020
0.516554 0.308867 0.181008
0.566457 0.298121 0.174831
0.617340 0.289035 0.167643
0.670823 0.281003 0.160332
0.727210 0.276032 0.151715
0.793043 0.272379 0.144436
0.868837 0.272524 0.136957
0.941238 0.296766 0.197935
1.021668 0.296900 0.197929
0.104145 0.402728 0.191259
0.112021 0.403305 0.184069
0.181095 0.406998 0.180438
0.253364 0.404999 0.177896
0.325291 0.401958 0.173618
0.399029 0.399256 0.167585
0.454356 0.381686 0.167491
0.506429 0.367239 0.165289
0.557554 0.355408 0.161581
0.609525 0.346072 0.156646
0.663544 0.338759 0.150239
0.722011 0.333645 0.145349
0.788423 0.331928 0.138917
0.865119 0.333740 0.133706
0.939907 0.353543 0.197652
1.020300 0.353704 0.197649
0.089157 0.447225 0.179406
0.097227 0.447774 0.171695
0.162742 0.452357 0.162573
0.235404 0.450345 0.161775
0.305126 0.448788 0.158951
0.374998 0.446589 0.154994
0.444498 0.444498 0.150632
0.497305 0.427763 0.150468
0.549205 0.414575 0.148827
0.602155 0.404595 0.145948
0.656803 0.397606 0.142828
0.716263 0.393594 0.137724
0.782949 0.392232 0.134208
0.860486 0.395860 0.131245
0.938051 0.412585 0.197406
1.018297 0.412819 0.197402
0.074629 0.491697 0.171000
0.084725 0.492273 0.162985
0.148554 0.496054 0.149004
0.221431 0.495730 0.147866
0.288476 0.494513 0.146820
0.355535 0.493604 0.144000
0.422805 0.491904 0.141578
0.490128 0.490128 0.138763
0.542367 0.475182 0.138461
0.595763 0.464261 0.137166
0.651626 0.456204 0.134736
0.711567 0.453056 0.133445
0.779292 0.453224 0.131650
0.856722 0.457811 0.130912
0.935429 0.473068 0.197059
1.015498 0.473338 0.197059
-0.055084 0.538438 0.155995
0.054032 0.538439 0.155787
0.138655 0.542859 0.138723
0.211438 0.542859 0.139269
0.277023 0.541421 0.137772
0.341874 0.541088 0.136355
0.406528 0.539627 0.134794
0.471626 0.538412 0.133379
0.537171 0.537171 0.132093
0.590737 0.525123 0.131790
0.647232 0.517025 0.130604
0.706463 0.513755 0.129576
0.774721 0.513294 0.130460
0.852179 0.519717 0.129717
0.931892 0.534291 0.196584
1.011769 0.534613 0.196578
-0.079271 0.587943 0.144681
-0.039067 0.587943 0.145147
0.131968 0.591475 0.132004
0.205173 0.590588 0.133208
0.269487 0.591425 0.131051
0.331910 0.590570 0.131267
0.395289 0.589663 0.131051
0.458675 0.588812 0.130527
0.522473 0.587806 0.129915
0.586640 0.586640 0.129258
0.642929 0.578060 0.128436
0.703160 0.573353 0.127042
0.770104 0.574485 0.129145
0.846522 0.581096 0.127665
0.927318 0.595754 0.195971
1.006979 0.596184 0.195964
-0.081078 0.640685 0.141225
-0.043619 0.640684 0.142164
0.129009 0.643333 0.129331
0.201272 0.643333 0.131734
0.264594 0.644037 0.128800
0.326553 0.642356 0.129897
0.387628 0.642231 0.128800
0.449659 0.641447 0.128419
0.512113 0.640452 0.127989
0.574973 0.639343 0.127531
0.638576 0.638677 0.127989
0.697639 0.633954 0.127531
0.764624 0.634311 0.126541
0.841010 0.643075 0.126952
0.922956 0.656708 0.186267
1.000979 0.657448 0.195218
-0.081086 0.697137 0.139752
-0.043638 0.697136 0.140921
0.129009 0.700837 0.129349
0.198163 0.699867 0.126812
0.260878 0.699361 0.126830
0.322055 0.698652 0.128049
0.382879 0.698438 0.126830
0.444133 0.697726 0.126565
0.505825 0.696693 0.126286
0.567901 0.695610 0.125932
0.630343 0.693936 0.124803
0.693059 0.692894 0.126675
0.758956 0.694275 0.123323
0.834538 0.702780 0.125339
0.919957 0.716987 0.123323
0.993536 0.718233 0.194307
-0.081094 0.759171 0.139559
-0.043661 0.759170 0.140661
0.127524 0.760999 0.127682
0.198163 0.760997 0.128771
0.259197 0.761788 0.126577
0.320134 0.760058 0.123441
0.381153 0.759966 0.125102
0.442149 0.759179 0.124911
0.503588 0.758080 0.124707
0.565377 0.756891 0.124483
0.627167 0.756252 0.122507
0.689599 0.754225 0.125952
0.752344 0.751911 0.124676
0.828084 0.761743 0.127199
0.911343 0.776697 0.122479
0.984356 0.777396 0.193150
-0.081111 0.829900 0.140912
-0.043693 0.829899 0.141590
0.123103 0.832704 0.123114
0.197383 0.832703 0.124522
0.260815 0.831009 0.127223
0.321353 0.831042 0.123407
0.382819 0.830166 0.123533
0.444280 0.829230 0.123407
0.506131 0.828036 0.123264
0.568247 0.826691 0.123089
0.630633 0.825307 0.119588
0.693448 0.822966 0.124560
0.755760 0.821174 0.119472
0.818849 0.818772 0.123600
0.900825 0.834154 0.121666
0.972542 0.834459 0.191682
-0.081123 0.910365 0.143537
-0.043731 0.910365 0.143538
0.124574 0.912244 0.124969
0.199704 0.912244 0.125699
0.262988 0.911588 0.120105
0.325282 0.910375 0.120751
0.387620 0.909758 0.122307
0.450052 0.908533 0.122222
0.512784 0.907033 0.122105
0.575813 0.905290 0.121983
0.639301 0.902388 0.127256
0.702083 0.900643 0.120515
0.765076 0.897314 0.123989
0.828084 0.893728 0.127419
0.890721 0.890721 0.121053
0.961182 0.890902 0.190278
-0.081138 0.986016 0.143534
-0.043764 0.986016 0.143529
0.192726 0.985664 0.193122
0.237515 0.985262 0.193117
0.288320 0.984693 0.192958
0.343539 0.983973 0.192793
0.401389 0.982943 0.192958
0.460423 0.981545 0.192793
0.520602 0.979906 0.192597
0.581665 0.977900 0.192346
0.643716 0.975671 0.192597
0.705366 0.972429 0.191575
0.767109 0.968921 0.191833
0.828979 0.964633 0.191053
0.890902 0.961181 0.190274
0.961181 0.961181 0.190273
0.170914 0.170914 0.325455
0.189032 0.170020 0.325121
0.247645 0.169392 0.324624
0.322032 0.163931 0.322643
0.378879 0.157133 0.300463
0.428813 0.148694 0.281587
0.476131 0.139845 0.264712
0.520437 0.130775 0.250940
0.564631 0.121448 0.239680
0.610558 0.111847 0.230794
0.659074 0.101830 0.223827
0.713043 0.091739 0.219736
0.775572 0.080740 0.217709
0.851209 0.016829 0.215378
0.943282 -0.067524 0.215358
1.023848 -0.067526 0.215378
0.167888 0.187249 0.324384
0.179012 0.179012 0.324694
0.242875 0.178756 0.324384
0.321213 0.172096 0.321389
0.379735 0.165605 0.299570
0.430886 0.156998 0.279823
0.477908 0.148192 0.263039
0.522561 0.138955 0.249202
0.567067 0.129460 0.237786
0.613169 0.119716 0.228635
0.662467 0.108958 0.221157
0.715780 0.100848 0.216778
0.778342 0.089885 0.214560
0.852179 0.079343 0.214580
0.943282 0.034512 0.215359
1.023848 0.034496 0.215378
0.160991 0.241817 0.320033
0.171374 0.238373 0.321069
0.243631 0.243412 0.318390
0.314651 0.238373 0.314486
0.375236 0.232437 0.299869
0.430273 0.224021 0.286605
0.482796 0.214276 0.273024
0.531544 0.204398 0.260706
0.579633 0.194109 0.249271
0.628762 0.183443 0.238790
0.680586 0.173285 0.229361
0.736242 0.162002 0.221359
0.799466 0.151278 0.214875
0.873497 0.141516 0.211001
0.942663 0.199579 0.244980
1.023154 0.199577 0.245047
0.139172 0.306220 0.306220
0.147876 0.306455 0.306455
0.223802 0.305437 0.305437
0.300745 0.300730 0.300730
0.364646 0.295964 0.295964
0.422333 0.290096 0.290096
0.476190 0.282944 0.282944
0.528627 0.274651 0.274651
0.581169 0.265176 0.265176
0.634763 0.254930 0.254930
0.690343 0.244311 0.244311
0.749555 0.232583 0.232583
0.816066 0.221387 0.221387
0.893008 0.210376 0.210376
0.941540 0.274148 0.274148
1.022009 0.274147 0.274147
0.120078 0.356246 0.279324
0.128264 0.356717 0.277102
0.200399 0.357907 0.277687
0.282540 0.355040 0.281969
0.351687 0.350893 0.277332
0.411717 0.340237 0.273083
0.468850 0.330972 0.267639
0.522138 0.321208 0.260986
0.574820 0.311823 0.253350
0.628623 0.302748 0.244763
0.683919 0.294607 0.235783
0.745241 0.286419 0.224896
0.811470 0.279179 0.215513
0.888393 0.272846 0.205316
0.940663 0.319242 0.273785
1.021066 0.319398 0.273783
0.103261 0.402385 0.258293
0.111134 0.402888 0.255079
0.179378 0.405740 0.255081
0.261226 0.406255 0.261510
0.329173 0.402930 0.257206
0.398796 0.398966 0.250748
0.457546 0.385993 0.248390
0.512329 0.374486 0.244351
0.565989 0.364374 0.238989
0.620538 0.355653 0.232457
0.676636 0.347678 0.225508
0.737786 0.342331 0.217445
0.804997 0.338025 0.208968
0.882810 0.336658 0.201150
0.939353 0.370535 0.273499
1.019672 0.370835 0.273496
0.088552 0.446977 0.242800
0.096654 0.447562 0.239048
0.162090 0.451273 0.235622
0.240318 0.452721 0.240643
0.308071 0.451023 0.238236
0.376387 0.448653 0.234226
0.444998 0.444998 0.228702
0.501344 0.431518 0.227091
0.556213 0.420374 0.223974
0.611609 0.411526 0.219551
0.668455 0.404261 0.214512
