MyTube/Resources/LUTs/fade.cube
LUT_3D_SIZE 6
-0.035809 -0.035797 0.003180
0.175246 0.061610 0.065027
0.394220 0.065325 0.069012
0.598413 0.100278 0.103131
0.808240 0.142849 0.144630
1.007100 0.291004 0.291891
0.047477 0.167023 0.051564
0.158068 0.160566 0.045953
0.383961 0.166473 0.056689
0.592177 0.181032 0.094133
0.804629 0.207946 0.139508
1.007286 0.323703 0.291935
0.034247 0.369207 0.038522
0.150640 0.368158 0.037064
0.364053 0.364725 0.026918
0.573664 0.364072 0.069089
0.789440 0.377381 0.119720
1.009876 0.440511 0.286410
0.055640 0.565497 0.058888
0.154213 0.564438 0.057236
0.354903 0.563642 0.057057
0.559978 0.560411 0.047863
0.773461 0.568260 0.101639
1.013675 0.605000 0.265606
0.092348 0.768221 0.094957
0.173856 0.767168 0.095130
0.359744 0.766883 0.093327
0.560284 0.764837 0.091043
0.759013 0.760727 0.079120
1.016824 0.790609 0.178572
0.163955 1.127069 0.163964
0.212822 1.126533 0.158872
0.375779 1.125503 0.156458
0.571399 1.123324 0.147066
0.772648 1.120042 0.131897
1.000019 1.111726 0.058867
0.022301 -0.599150 0.189705
0.165240 -0.600022 0.189763
0.397768 -0.598127 0.189962
0.604173 -0.590905 0.204473
0.816386 -0.579357 0.235495
1.012036 -0.516561 0.355245
0.044082 0.163431 0.172673
0.171737 0.171795 0.180562
0.375630 0.167929 0.176051
0.596034 0.183181 0.191151
0.814540 0.214835 0.222456
1.007422 0.352762 0.356374
0.036247 0.369087 0.161744
0.119127 0.356256 0.131342
0.347245 0.348243 0.116118
0.574674 0.359986 0.154078
0.797161 0.378353 0.196818
1.008081 0.458139 0.351633
0.057280 0.565458 0.164584
0.114330 0.559082 0.126278
0.342621 0.557849 0.128522
0.550054 0.550726 0.113399
0.775684 0.567762 0.169939
1.011836 0.614771 0.339318
0.093453 0.768093 0.182175
0.144359 0.768083 0.153811
0.350109 0.766011 0.155730
0.555434 0.762967 0.151355
0.755156 0.755096 0.134580
1.015694 0.794686 0.287216
0.159748 1.126552 0.195931
0.230258 1.128480 0.212530
0.373207 1.128275 0.189477
0.568950 1.125987 0.171708
0.772085 1.121941 0.158684
1.000118 1.112177 0.093444
0.064998 -0.594638 0.432945
0.177345 -0.596479 0.429088
0.382403 -0.600069 0.402877
0.598346 -0.593008 0.401362
0.814251 -0.581903 0.420848
1.011853 -0.517539 0.479691
0.067177 0.177606 0.399060
0.180569 0.180730 0.383712
0.373838 0.154071 0.378783
0.594650 0.175596 0.383738
0.811459 0.209974 0.397111
1.007563 0.347472 0.461248
0.030235 0.367410 0.371131
0.108348 0.353314 0.357959
0.375335 0.375339 0.378852
0.559780 0.372230 0.375543
0.795416 0.400058 0.404819
1.008695 0.503805 0.506668
0.056754 0.564904 0.360900
0.118908 0.559610 0.348933
0.340901 0.543491 0.344870
0.531187 0.531594 0.325062
0.777061 0.567718 0.363194
1.010081 0.639754 0.500493
0.093005 0.767714 0.365247
0.148013 0.766670 0.355408
0.333424 0.761226 0.338487
0.544911 0.756699 0.331585
0.742179 0.742570 0.311848
1.014114 0.805735 0.479785
0.151136 1.125480 0.349309
0.214715 1.127662 0.352923
0.450535 1.126678 0.432867
0.598694 1.126539 0.409481
0.776323 1.125309 0.342572
1.001265 1.113028 0.262742
0.138008 -0.582985 0.652303
0.212894 -0.585265 0.649220
0.386161 -0.589269 0.631034
0.583227 -0.594648 0.603704
0.807732 -0.582854 0.615198
1.011853 -0.518184 0.643333
0.122890 0.203732 0.616549
0.216494 0.215632 0.606940
0.390201 0.196589 0.606724
0.588298 0.160868 0.591322
0.808365 0.203028 0.599419
1.007662 0.347328 0.619271
0.080353 0.373052 0.586658
0.161633 0.371853 0.591171
0.381791 0.381784 0.568384
0.554647 0.361387 0.558520
0.794301 0.393223 0.592919
1.008937 0.499576 0.643349
0.051056 0.563560 0.566154
0.109868 0.555976 0.559609
0.329102 0.538018 0.541596
0.567677 0.567890 0.570493
0.766650 0.583060 0.585617
1.010976 0.670058 0.672367
0.092129 0.766923 0.565208
0.146842 0.765927 0.561907
0.329545 0.760082 0.550952
0.558255 0.748571 0.560551
0.732756 0.732633 0.539098
1.013928 0.818561 0.661526
0.135388 1.123767 0.542226
0.184115 1.126584 0.542026
0.438375 1.125606 0.581183
0.638517 1.125422 0.619494
0.792983 1.124548 0.588694
1.001163 1.112528 0.494772
0.209659 -0.564253 0.873100
0.263043 -0.567057 0.872135
0.413126 -0.572218 0.862777
0.601374 -0.578619 0.840950
0.796518 -0.585064 0.816973
1.012766 -0.518206 0.821379
0.182341 0.242973 0.838066
0.265134 0.265527 0.831696
0.415152 0.247556 0.831127
0.607817 0.223404 0.823181
0.800114 0.188880 0.802680
1.007817 0.347099 0.798633
0.144800 0.393729 0.812335
0.218063 0.399880 0.822158
0.423378 0.423351 0.806016
0.597932 0.407172 0.803199
0.787222 0.380677 0.790274
1.009123 0.499300 0.810162
0.110758 0.575960 0.785523
0.175270 0.578023 0.790954
0.377147 0.580906 0.792222
0.591760 0.591760 0.775337
0.758355 0.572494 0.760967
1.011318 0.667464 0.823572
0.084994 0.764265 0.766755
0.136973 0.762109 0.764585
0.319413 0.753170 0.755962
0.546311 0.740451 0.743969
0.761835 0.761398 0.763510
1.014136 0.832273 0.834491
0.103943 1.120745 0.744269
0.149766 1.123791 0.744274
0.417959 1.123779 0.757694
0.622785 1.123788 0.772379
0.803894 1.123117 0.783673
0.998790 1.109637 0.745568
0.322127 -0.514444 1.017429
0.353328 -0.516525 1.016848
0.456469 -0.519006 1.016488
0.612870 -0.521709 1.016132
0.798695 -0.524830 1.016055
1.017746 -0.527782 1.016958
0.287525 0.321696 0.997717
0.351364 0.351078 0.998749
0.456525 0.341813 0.997666
0.617941 0.337329 0.997456
0.801356 0.330967 0.997294
1.014320 0.322645 0.997313
0.277738 0.438701 0.997514
0.336387 0.453385 0.997570
0.499327 0.499323 0.997157
0.638426 0.491031 0.997076
0.809999 0.487954 0.996924
1.013300 0.481909 0.996862
0.262961 0.605783 0.997346
0.324809 0.613106 0.997378
0.486431 0.635583 0.997061
0.665107 0.665061 0.996568
0.818561 0.659390 0.996247
1.011872 0.653762 0.996092
0.227536 0.792819 0.997011
0.296920 0.795952 0.997014
0.470171 0.804876 0.996514
0.650828 0.814926 0.995994
0.827220 0.826729 0.994866
1.009964 0.819884 0.994476
0.133106 1.008466 0.989749
0.162934 1.010547 0.991973
0.374968 1.011181 0.993636
0.591277 1.008829 0.991842
0.787502 1.005253 0.988779
1.000019 0.999788 0.982391
