MyTube/Resources/LUTs/fade.cube
LUT_3D_SIZE 16
-0.035809 -0.035797 0.003180
0.023353 0.022311 0.026967
0.091812 0.050300 0.054022
0.175246 0.061610 0.065027
0.252774 0.045675 0.050425
0.325526 0.054894 0.058662
0.394220 0.065325 0.069012
0.462706 0.075943 0.079289
0.530806 0.087605 0.090672
0.598413 0.100278 0.103131
0.668833 0.114567 0.116746
0.736373 0.127620 0.130463
0.808240 0.142849 0.144630
0.885141 0.156720 0.158664
0.970096 0.161758 0.163535
1.007100 0.291004 0.291891
0.031370 0.032283 0.035482
0.027399 0.027418 0.031088
0.093514 0.053564 0.055014
0.175046 0.065678 0.064650
0.251380 0.051838 0.050048
0.324214 0.058477 0.059177
0.393856 0.068811 0.068575
0.462433 0.079078 0.078921
0.530594 0.090467 0.090361
0.598287 0.102892 0.102823
0.668684 0.116534 0.116420
0.736293 0.130230 0.130163
0.808318 0.145315 0.146017
0.885141 0.158615 0.158786
0.970224 0.163183 0.162825
1.007113 0.291843 0.292033
0.051363 0.095206 0.055087
0.053606 0.094033 0.053693
0.087136 0.088127 0.047922
0.169549 0.104456 0.057810
0.246811 0.097156 0.045552
0.320297 0.101162 0.054202
0.390372 0.107638 0.064309
0.459540 0.114829 0.075151
0.528265 0.123233 0.087024
0.596247 0.132580 0.099861
0.666281 0.143194 0.113959
0.734197 0.154644 0.128251
0.807505 0.168148 0.143599
0.884122 0.180730 0.157762
0.970378 0.181800 0.158306
1.007149 0.302405 0.292034
0.047477 0.167023 0.051564
0.052060 0.166862 0.051400
0.096270 0.164935 0.049197
0.158068 0.160566 0.045953
0.238266 0.162259 0.036880
0.312668 0.163787 0.045070
0.383961 0.166473 0.056689
0.454029 0.170091 0.068161
0.523480 0.175013 0.080659
0.592177 0.181032 0.094133
0.663618 0.188659 0.109193
0.731183 0.196783 0.123480
0.804629 0.207946 0.139508
0.881003 0.218874 0.155547
0.970659 0.216356 0.147909
1.007286 0.323703 0.291935
0.027429 0.235034 0.032439
0.032922 0.234965 0.032442
0.083300 0.233994 0.031136
0.154745 0.232868 0.030494
0.228460 0.229627 0.026874
0.304528 0.231173 0.035620
0.376234 0.230673 0.047591
0.446967 0.232228 0.059336
0.517152 0.234985 0.072276
0.586509 0.238731 0.086227
0.658358 0.244422 0.101888
0.726615 0.249216 0.117312
0.800191 0.258695 0.134665
0.876767 0.269015 0.150637
0.969435 0.264986 0.134665
1.007762 0.354927 0.291241
0.029852 0.303029 0.034544
0.034551 0.303012 0.034503
0.082222 0.301996 0.033873
0.152054 0.301954 0.033164
0.224583 0.299951 0.030819
0.297432 0.298897 0.023708
0.369245 0.296812 0.038228
0.439876 0.296821 0.050445
0.510233 0.298193 0.063352
0.580018 0.300458 0.077447
0.651400 0.305521 0.093577
0.720059 0.309868 0.109843
0.794601 0.316581 0.128005
0.872637 0.325298 0.145668
0.963754 0.324954 0.129063
1.008686 0.394440 0.289420
0.034247 0.369207 0.038522
0.038447 0.369230 0.038467
0.082917 0.369207 0.037820
0.150640 0.368158 0.037064
0.221477 0.366816 0.035986
0.292473 0.365830 0.034293
0.364053 0.364725 0.026918
0.433874 0.362718 0.042019
0.503889 0.362895 0.055213
0.573664 0.364072 0.069089
0.645058 0.368120 0.084938
0.715821 0.370363 0.102406
0.789440 0.377381 0.119720
0.867384 0.385044 0.139494
0.957596 0.387827 0.121819
1.009876 0.440511 0.286410
0.039492 0.434553 0.043396
0.043339 0.434533 0.043357
0.085426 0.434553 0.043396
0.150388 0.434533 0.042617
0.218732 0.433450 0.041926
0.289205 0.432193 0.041285
0.359167 0.431338 0.038338
0.429555 0.430103 0.031643
0.498789 0.428550 0.047877
0.568082 0.428735 0.062107
0.639954 0.431684 0.077990
0.709238 0.433983 0.095177
0.784571 0.440702 0.114290
0.862162 0.447763 0.133930
0.950666 0.452225 0.114290
1.011153 0.491707 0.281885
0.046484 0.499958 0.050048
0.050007 0.499998 0.050022
0.088868 0.499958 0.050048
0.152205 0.498928 0.050022
0.217909 0.498561 0.049426
0.287340 0.497630 0.049027
0.356283 0.497516 0.047101
0.425602 0.496598 0.045190
0.494958 0.495386 0.038585
0.563652 0.494366 0.056299
0.635101 0.496430 0.071882
0.704786 0.497503 0.088221
0.779516 0.503841 0.107521
0.855944 0.511355 0.127341
0.943453 0.517406 0.107521
1.012448 0.546901 0.275325
0.055640 0.565497 0.058888
0.058898 0.565488 0.058908
0.096544 0.564447 0.059733
0.154213 0.564438 0.057236
0.219661 0.564691 0.057057
0.286164 0.563920 0.057248
0.354903 0.563642 0.057057
0.423365 0.562871 0.056420
0.491963 0.561991 0.054571
0.559978 0.560411 0.047863
0.631095 0.561991 0.066479
0.700069 0.562491 0.084707
0.773461 0.568260 0.101639
0.850682 0.575734 0.120761
0.936342 0.582905 0.102692
1.013675 0.605000 0.265606
0.067079 0.631763 0.070055
0.070168 0.631747 0.070192
0.104245 0.631763 0.068258
0.159359 0.631747 0.069283
0.222934 0.631186 0.070825
0.288590 0.630471 0.070256
0.355005 0.630120 0.068123
0.422663 0.629405 0.067559
0.490618 0.628579 0.066714
0.558315 0.627506 0.064826
0.626592 0.627570 0.054792
0.695259 0.627506 0.080422
0.769788 0.632699 0.097164
0.846479 0.640105 0.115605
0.929651 0.648407 0.101339
1.014784 0.665205 0.251034
0.079208 0.699158 0.081960
0.082133 0.699129 0.082152
0.112852 0.699158 0.080036
0.165445 0.699129 0.081191
0.226563 0.698686 0.080145
0.290392 0.698088 0.082474
0.356536 0.697666 0.080145
0.423422 0.697113 0.079593
0.490826 0.696256 0.078767
0.558327 0.695415 0.077814
0.625762 0.694257 0.076875
0.691094 0.691282 0.066821
0.765556 0.697505 0.092769
0.842304 0.705424 0.110262
0.923313 0.714197 0.105252
1.015711 0.727390 0.227867
0.092348 0.768221 0.094957
0.095117 0.768202 0.095130
0.123747 0.767187 0.093924
0.173856 0.767168 0.095130
0.230859 0.767915 0.091306
0.295078 0.767286 0.093704
0.359744 0.766883 0.093327
0.426008 0.766252 0.092688
0.492946 0.765620 0.091891
0.560284 0.764837 0.091043
0.627869 0.764586 0.090886
0.694141 0.762816 0.087047
0.759013 0.760727 0.079120
0.837119 0.768628 0.106075
0.917796 0.779543 0.112754
1.016824 0.790609 0.178572
0.106937 0.840792 0.109312
0.109459 0.840772 0.109478
0.136370 0.840792 0.109312
0.181943 0.840772 0.107371
0.238058 0.840725 0.107861
0.300814 0.840128 0.109309
0.364887 0.839651 0.107861
0.430682 0.839106 0.107210
0.497394 0.838504 0.106445
0.564606 0.837833 0.105713
0.631273 0.837428 0.100130
0.699500 0.836757 0.101506
0.766333 0.834040 0.098534
0.830855 0.829927 0.090115
0.912549 0.844453 0.115360
1.014560 0.856011 0.138236
0.122309 0.917075 0.124459
0.124634 0.917055 0.124606
0.148589 0.917075 0.123409
0.191847 0.917055 0.122503
0.248397 0.917106 0.124377
0.308696 0.915574 0.122554
0.372028 0.915999 0.123322
0.437524 0.915574 0.122554
0.504171 0.915040 0.121843
0.571419 0.914338 0.120877
0.639104 0.913966 0.123948
0.707319 0.913359 0.120877
0.775109 0.912163 0.120401
0.842304 0.910283 0.119526
0.905685 0.905901 0.105680
1.009987 0.920753 0.138442
0.163955 1.127069 0.163964
0.164538 1.126901 0.163071
0.181803 1.126733 0.160823
0.212822 1.126533 0.158872
0.260531 1.126314 0.159614
0.314663 1.126089 0.155864
0.375779 1.125503 0.156458
0.439278 1.124894 0.153760
0.504802 1.124144 0.150799
0.571399 1.123324 0.147066
0.637594 1.122344 0.143450
0.706270 1.121303 0.137606
0.772648 1.120042 0.131897
0.839201 1.118648 0.124760
0.907408 1.115835 0.099314
1.000019 1.111726 0.058867
-0.101135 -0.603774 -0.071719
-0.096054 -0.603537 -0.067145
0.066194 -0.600324 0.033554
0.165207 -0.598775 0.051095
0.251747 -0.600330 0.036909
0.327667 -0.599081 0.045911
0.398413 -0.597286 0.059228
0.467958 -0.595283 0.072791
0.536695 -0.592910 0.087823
0.604769 -0.590168 0.104041
0.674688 -0.586956 0.121109
0.743792 -0.583258 0.138735
0.816438 -0.578857 0.157277
0.896627 -0.574185 0.175012
0.979320 -0.569077 0.191941
1.012074 -0.516378 0.317635
0.029417 0.030373 0.045224
0.028651 0.028619 0.043557
0.092433 0.053607 0.065684
0.171937 0.064747 0.076390
0.252011 0.048281 0.061994
0.325002 0.055211 0.068143
0.394515 0.065676 0.077318
0.463206 0.076305 0.086994
0.531575 0.088126 0.097972
0.599302 0.101088 0.110072
0.669586 0.115121 0.122144
0.737276 0.129476 0.136348
0.809103 0.145117 0.150638
0.887251 0.157839 0.163882
0.969903 0.167169 0.172677
1.007124 0.294230 0.297098
0.051410 0.095203 0.067149
0.053208 0.093316 0.065347
0.087199 0.088125 0.059345
0.169030 0.103721 0.068901
0.246269 0.095023 0.056605
0.319846 0.098241 0.063231
0.390864 0.105466 0.073228
0.460169 0.112954 0.083479
0.528901 0.121670 0.094916
0.597004 0.131397 0.107413
0.666932 0.142696 0.120085
0.734950 0.154507 0.133694
0.808112 0.167966 0.149930
0.885141 0.179368 0.162359
0.969900 0.184760 0.167792
1.007167 0.304183 0.296638
0.048315 0.167233 0.065409
0.048144 0.165377 0.060997
0.093289 0.164089 0.059372
0.157046 0.159064 0.055138
0.237545 0.161702 0.045944
0.312148 0.162364 0.054047
0.384272 0.164852 0.064764
0.454578 0.168684 0.075905
0.524138 0.173830 0.088124
0.592907 0.180112 0.101377
0.663237 0.187476 0.115118
0.731957 0.195847 0.129764
0.805161 0.207485 0.145928
0.882025 0.218502 0.160267
0.970146 0.219014 0.158543
1.007239 0.325463 0.296630
0.029448 0.235293 0.049066
0.022291 0.233309 0.038659
0.078739 0.233198 0.040074
0.153333 0.231211 0.037956
0.226237 0.227338 0.033118
0.302722 0.229024 0.042746
0.376110 0.229423 0.054591
0.447228 0.231129 0.066277
0.517625 0.234073 0.079130
0.587109 0.237976 0.093032
0.657758 0.244562 0.108564
0.728143 0.249515 0.123396
0.800644 0.258288 0.139326
0.877793 0.268577 0.157684
0.970825 0.264578 0.140378
1.007578 0.356619 0.296156
0.032251 0.303278 0.050416
0.023106 0.301699 0.038804
0.076241 0.301186 0.040594
0.148540 0.300637 0.039513
0.222824 0.298791 0.036964
0.296234 0.296945 0.030093
0.368485 0.295636 0.044168
0.439728 0.295899 0.056519
0.510433 0.297444 0.069512
0.580423 0.299865 0.083724
0.652675 0.303752 0.099747
0.721589 0.308230 0.116727
0.795879 0.316426 0.133786
0.872637 0.324656 0.151866
0.965068 0.324798 0.134840
1.008443 0.395864 0.294550
0.036614 0.369369 0.053357
0.027741 0.368165 0.042032
0.076687 0.368379 0.043282
0.147285 0.367092 0.042032
0.218982 0.366424 0.042232
0.290824 0.364912 0.038398
0.362588 0.363306 0.031834
0.433254 0.361778 0.047238
0.503785 0.362158 0.060690
0.573831 0.363538 0.074762
0.646011 0.367381 0.091447
0.715006 0.369842 0.107882
0.790613 0.377265 0.125342
0.868461 0.385231 0.144779
0.958723 0.387739 0.127441
1.009653 0.441736 0.291676
0.041690 0.434703 0.057206
0.033491 0.433752 0.046505
0.079666 0.433665 0.048362
0.147251 0.432706 0.046505
0.217501 0.432535 0.046857
0.286968 0.432083 0.046953
0.357991 0.430452 0.043094
0.428355 0.428955 0.036047
0.498249 0.427862 0.052682
0.567993 0.428270 0.067251
0.640456 0.430980 0.082869
0.710159 0.434544 0.100251
0.784586 0.440676 0.119708
0.862162 0.447752 0.138304
0.951692 0.452172 0.119708
1.010950 0.492756 0.287313
0.048473 0.500127 0.062831
0.041226 0.499369 0.053041
0.085490 0.499043 0.055250
0.147362 0.499369 0.054660
0.215645 0.499022 0.054893
0.285344 0.497945 0.052804
0.355064 0.496907 0.051662
0.424674 0.495843 0.049624
0.494025 0.494498 0.042733
0.563249 0.493803 0.060909
0.635188 0.496601 0.075347
0.705462 0.497986 0.094774
0.779329 0.503851 0.111500
0.856946 0.511097 0.131917
0.944352 0.517424 0.112548
1.012273 0.547712 0.280938
0.057397 0.565559 0.070665
0.051306 0.565072 0.062020
0.089538 0.564511 0.061825
0.151823 0.565072 0.062881
0.217503 0.565314 0.063276
0.285304 0.563426 0.063400
0.353811 0.563216 0.061550
0.422526 0.562407 0.060819
0.491295 0.561436 0.058840
0.559254 0.559615 0.051742
0.630393 0.561436 0.072933
0.699346 0.562783 0.088591
0.774163 0.568290 0.106216
0.851704 0.575287 0.125609
0.937162 0.582935 0.107264
1.013531 0.605602 0.271512
0.068618 0.631846 0.080875
0.063484 0.631461 0.073260
0.100800 0.631846 0.074274
0.157750 0.630454 0.076049
0.219830 0.630895 0.073659
0.286748 0.631176 0.072831
0.354007 0.629799 0.072734
0.421850 0.629072 0.071915
0.489948 0.628237 0.070998
0.557765 0.627092 0.068844
0.626977 0.626170 0.060431
0.695710 0.627092 0.083825
0.769253 0.632809 0.100078
0.846479 0.640526 0.118808
0.930125 0.648457 0.105333
1.014671 0.665651 0.257374
0.080548 0.699147 0.092010
0.076251 0.698993 0.085295
0.111170 0.699147 0.086014
0.163152 0.698993 0.085295
0.224544 0.698526 0.085739
0.289667 0.697911 0.084915
0.355540 0.697484 0.084752
0.422680 0.696846 0.083938
0.490178 0.696038 0.083045
0.557859 0.695211 0.082087
0.625130 0.694952 0.079202
0.691660 0.690992 0.069024
0.766016 0.697478 0.097073
0.842304 0.704670 0.114220
0.923704 0.714157 0.108612
1.015636 0.727651 0.234960
0.093537 0.768209 0.104350
0.090045 0.768193 0.098535
0.119723 0.768209 0.097007
0.171759 0.767158 0.099577
0.231001 0.767932 0.099992
0.293327 0.767248 0.098086
0.358880 0.766804 0.097894
0.425318 0.766155 0.097044
0.492416 0.765478 0.096205
0.559896 0.764738 0.095246
0.627375 0.763419 0.094141
0.694745 0.762717 0.089159
0.759147 0.759733 0.083035
0.837119 0.768920 0.106799
0.917988 0.779582 0.115988
1.016712 0.790894 0.188722
0.107931 0.840738 0.117776
0.105157 0.840821 0.112931
0.133165 0.840738 0.113574
0.179747 0.840821 0.110832
0.237331 0.840710 0.112346
0.299121 0.840165 0.111462
0.364136 0.839703 0.112346
0.430052 0.839144 0.111462
0.496927 0.838510 0.110664
0.564228 0.837802 0.109879
0.631871 0.836442 0.107509
0.700120 0.836726 0.109879
0.766402 0.834017 0.103398
0.830855 0.830150 0.094975
0.912629 0.844430 0.119167
1.014885 0.856203 0.141168
0.123172 0.917116 0.132127
0.121060 0.917345 0.128046
0.145238 0.917116 0.125816
0.193543 0.917345 0.130154
0.245577 0.917099 0.124329
0.307083 0.916659 0.127696
0.371342 0.916089 0.127483
0.436954 0.915693 0.126648
0.503753 0.915128 0.125907
0.571145 0.914378 0.125206
0.638683 0.914148 0.122750
0.707054 0.912290 0.124146
0.774985 0.912000 0.121616
0.842304 0.910372 0.119186
0.905527 0.905766 0.110053
1.010134 0.920743 0.142314
0.161670 1.126743 0.160463
0.159449 1.127091 0.156877
0.178451 1.126885 0.156263
0.214044 1.126700 0.155825
0.260807 1.126464 0.157437
0.314110 1.126305 0.150821
0.375010 1.125713 0.152196
0.438756 1.125144 0.149766
0.504422 1.124379 0.146942
0.571160 1.123483 0.143436
0.638326 1.122490 0.140643
0.706042 1.121431 0.132928
0.772650 1.120173 0.130398
0.839201 1.118830 0.115866
0.907411 1.115923 0.094736
1.000019 1.111764 0.052724
-0.050926 -0.601067 0.091355
0.004696 -0.600926 0.093372
0.064438 -0.600762 0.093379
0.165408 -0.598940 0.113233
0.250420 -0.600481 0.106436
0.326360 -0.599240 0.110296
0.398141 -0.597475 0.116946
0.467718 -0.595445 0.125017
0.536474 -0.593066 0.134776
0.604546 -0.590343 0.145728
0.674494 -0.587055 0.157892
0.743549 -0.583442 0.171993
0.816423 -0.578950 0.188159
0.895595 -0.574397 0.202050
0.979390 -0.569230 0.217536
1.012068 -0.516382 0.331035
0.049363 0.053416 0.109189
0.052056 0.052104 0.107666
0.089590 0.049442 0.104981
0.172764 0.062926 0.120288
0.251706 0.047575 0.113562
0.325478 0.055355 0.115545
0.394191 0.065754 0.120920
0.462639 0.076473 0.127113
0.530734 0.088210 0.134501
0.598312 0.100855 0.142903
0.668738 0.115205 0.153416
0.735186 0.129241 0.163913
0.807893 0.144062 0.175352
0.886185 0.156168 0.185199
0.969735 0.162971 0.192145
1.007161 0.291514 0.305818
0.046365 0.090931 0.105556
0.048403 0.089909 0.104307
0.094777 0.093973 0.107662
0.162661 0.106484 0.117982
0.239205 0.097155 0.109275
0.316661 0.098119 0.111562
0.390087 0.103432 0.115585
0.461164 0.110719 0.122076
0.531087 0.119906 0.130383
0.600011 0.130487 0.140107
0.670148 0.143031 0.151400
0.738977 0.155699 0.163209
0.812903 0.169818 0.176936
0.891379 0.181600 0.188274
0.968466 0.202356 0.208432
1.007220 0.315827 0.319376
0.047823 0.166736 0.111884
0.047921 0.165578 0.108957
0.096732 0.159388 0.108733
0.154650 0.155076 0.103698
0.232411 0.156287 0.092929
0.311101 0.158613 0.096148
0.384353 0.161529 0.104360
0.455641 0.165968 0.112933
0.525889 0.171811 0.122763
0.595244 0.178861 0.133631
0.666020 0.187565 0.145882
0.735258 0.196700 0.158852
0.808685 0.209029 0.172983
0.887251 0.218462 0.183713
0.968441 0.231042 0.198173
1.007322 0.333814 0.316911
0.029240 0.235063 0.098905
0.026163 0.234247 0.094188
0.064742 0.226657 0.079904
0.144562 0.225866 0.079365
0.219100 0.220575 0.073421
0.300085 0.224080 0.079247
0.375286 0.225824 0.089795
0.447739 0.228260 0.100270
0.519032 0.231938 0.111971
0.589194 0.236604 0.124390
0.661224 0.243469 0.137201
0.730321 0.249183 0.150664
0.804717 0.259045 0.166830
0.883029 0.268837 0.180482
0.968624 0.274772 0.185715
1.007434 0.364211 0.316824
0.032086 0.303137 0.097348
0.029786 0.302678 0.093230
0.054130 0.295801 0.069242
0.137061 0.295345 0.071948
0.215556 0.293468 0.068026
0.288089 0.289768 0.060010
0.365481 0.291382 0.074406
0.438919 0.292902 0.086658
0.511006 0.295265 0.099537
0.581919 0.298416 0.113451
0.654304 0.304686 0.127920
0.725196 0.307850 0.142879
0.798966 0.316890 0.159129
0.876767 0.326391 0.175688
0.969284 0.326324 0.164377
1.007813 0.402835 0.316233
0.036493 0.369298 0.097745
0.035222 0.369017 0.094287
0.051362 0.364070 0.067786
0.134190 0.363744 0.071071
0.210551 0.362424 0.070098
0.283905 0.360337 0.065342
0.356267 0.357193 0.057077
0.430547 0.358280 0.073454
0.503073 0.359797 0.087526
0.574369 0.362004 0.102151
0.647399 0.366110 0.117637
0.717628 0.370389 0.133695
0.792371 0.377708 0.150555
0.870518 0.387109 0.169549
0.963691 0.388180 0.152660
1.008747 0.447834 0.314266
0.041609 0.434642 0.099361
0.040925 0.434447 0.096349
0.053936 0.429423 0.068284
0.134320 0.430243 0.072908
0.207194 0.429684 0.071376
0.280766 0.428083 0.071495
0.352913 0.426534 0.066878
0.423229 0.423901 0.058364
0.496004 0.425010 0.076413
0.567421 0.426501 0.091967
0.641391 0.431257 0.107630
0.711685 0.432779 0.124387
0.787996 0.440150 0.144131
0.865284 0.448623 0.162769
0.956095 0.452712 0.144131
1.010090 0.497814 0.310681
0.048414 0.500037 0.102875
0.048115 0.499907 0.100180
0.058932 0.496879 0.073136
0.136001 0.496763 0.078207
0.207931 0.496227 0.076227
0.280338 0.495836 0.076124
0.350503 0.494159 0.074361
0.420726 0.492697 0.071500
0.489835 0.490380 0.063345
0.561459 0.491565 0.083128
0.635193 0.495618 0.100830
0.704670 0.497842 0.117139
0.781240 0.504324 0.135482
0.858995 0.510973 0.156166
0.948286 0.517943 0.135482
1.011522 0.551780 0.305133
0.057357 0.565523 0.108468
0.057384 0.565458 0.106155
0.068602 0.562406 0.080962
0.140762 0.563360 0.086609
0.210151 0.562322 0.085415
0.279769 0.561319 0.084169
0.349581 0.561274 0.083462
0.419066 0.560257 0.082227
0.488220 0.558957 0.079617
0.555861 0.556409 0.071310
0.629400 0.561008 0.092409
0.700147 0.561621 0.110250
0.775370 0.567748 0.129289
0.852771 0.576438 0.146839
0.940329 0.583443 0.128233
1.012903 0.608827 0.296876
0.068578 0.631777 0.116266
0.068874 0.631669 0.114325
0.078731 0.630741 0.090221
0.146299 0.630633 0.096493
0.213807 0.629593 0.095039
0.282572 0.629708 0.095985
0.350087 0.628545 0.094011
0.418724 0.627625 0.092910
0.487379 0.626593 0.091591
0.555481 0.625163 0.088829
0.623334 0.624519 0.081718
0.694530 0.626200 0.102194
0.769759 0.633230 0.122775
0.847550 0.639926 0.141732
0.932742 0.648939 0.123828
1.014179 0.668153 0.284434
0.080515 0.699134 0.124940
0.080981 0.699081 0.123289
0.092349 0.699134 0.103918
0.154729 0.697996 0.108564
0.217839 0.697800 0.106656
0.284786 0.697982 0.105716
0.352005 0.696714 0.105606
0.419907 0.695964 0.104658
0.487961 0.695055 0.103488
0.555906 0.694117 0.102116
0.623934 0.691966 0.097204
0.689821 0.688784 0.089752
0.764787 0.696739 0.113640
0.842304 0.704450 0.133701
0.925592 0.714490 0.124146
1.015279 0.729618 0.264894
0.093513 0.768171 0.134720
0.094046 0.768163 0.133229
0.104964 0.767147 0.115798
0.163321 0.767139 0.120617
0.224549 0.767589 0.117980
0.289817 0.766889 0.120359
0.355546 0.766565 0.117980
0.422838 0.765899 0.117210
0.490449 0.765053 0.116177
0.558273 0.764172 0.114815
0.626428 0.762935 0.116177
0.693113 0.761013 0.110614
0.758259 0.757972 0.103486
0.837119 0.769123 0.125471
0.919110 0.779900 0.130817
1.016259 0.792196 0.229391
0.107907 0.840766 0.145787
0.108474 0.840722 0.144457
0.121581 0.840766 0.131073
0.172576 0.840722 0.131847
0.233346 0.840819 0.133684
0.295904 0.841309 0.131753
0.361206 0.839812 0.131582
0.427889 0.839213 0.130714
0.495227 0.838506 0.129782
0.562892 0.837686 0.128608
0.631199 0.836438 0.127682
0.698768 0.835617 0.123354
0.765683 0.833998 0.124414
0.829788 0.829744 0.110007
0.912983 0.844410 0.135974
1.016324 0.856900 0.155202
0.123140 0.917074 0.158141
0.123847 0.917130 0.157024
0.135750 0.918085 0.143438
0.186880 0.918141 0.148625
0.240983 0.917790 0.146132
0.303104 0.917150 0.144113
0.368826 0.916682 0.146132
0.435069 0.916138 0.145164
0.502322 0.915516 0.144341
0.570094 0.914822 0.143416
0.638308 0.913429 0.142235
0.705955 0.912697 0.142363
0.773421 0.911556 0.139993
0.842304 0.910934 0.135664
0.905029 0.905280 0.127380
1.010810 0.921333 0.159838
0.159667 1.126527 0.169518
0.158911 1.126700 0.167915
0.165957 1.128219 0.154825
0.206148 1.127868 0.159503
0.255306 1.127645 0.159452
0.310309 1.127354 0.157565
0.372662 1.126770 0.157351
0.437022 1.126147 0.155456
0.503235 1.125316 0.153037
0.570408 1.124396 0.149938
0.638136 1.123368 0.144630
0.705325 1.122207 0.137328
0.771740 1.120838 0.134534
0.839201 1.119231 0.126446
0.907541 1.116325 0.101949
1.000019 1.111968 0.061938
0.022301 -0.599150 0.189705
0.032923 -0.599279 0.190801
0.091516 -0.599555 0.191819
0.165240 -0.600022 0.189763
0.251081 -0.601237 0.189962
0.325969 -0.599978 0.188841
0.397768 -0.598127 0.189962
0.467337 -0.596105 0.193047
0.536090 -0.593676 0.197960
0.604173 -0.590905 0.204473
0.674111 -0.587643 0.212661
0.742150 -0.583902 0.222318
0.816386 -0.579357 0.235495
0.895595 -0.574638 0.246255
0.979347 -0.569665 0.259625
1.012036 -0.516561 0.355245
0.059579 0.063829 0.186177
0.062052 0.062109 0.183439
0.106721 0.061242 0.185120
0.170710 0.058707 0.181325
0.250931 0.045990 0.182237
0.323780 0.053831 0.181464
0.393438 0.064816 0.182237
0.462006 0.075660 0.184598
0.530229 0.087486 0.188440
0.597884 0.100263 0.193498
0.668250 0.114448 0.200000
0.734750 0.127589 0.208187
0.808819 0.144187 0.217220
0.886185 0.155116 0.226943
0.969635 0.162054 0.231913
1.007168 0.291492 0.327588
0.055456 0.107225 0.184223
0.058084 0.105275 0.182963
0.105716 0.106171 0.173738
0.160545 0.102119 0.171429
0.239059 0.091971 0.173499
0.318044 0.094454 0.173651
0.391000 0.100209 0.176662
0.461506 0.108046 0.179934
0.530829 0.117610 0.184711
0.599250 0.128379 0.190732
0.669909 0.140739 0.198370
0.737278 0.153593 0.206486
0.811555 0.166347 0.217288
0.890386 0.176976 0.225743
0.968227 0.195750 0.240368
1.007287 0.311230 0.335812
0.044082 0.163431 0.172673
0.043582 0.162348 0.172165
0.090683 0.155032 0.165325
0.171737 0.171795 0.180562
0.225738 0.164770 0.171833
0.299782 0.165803 0.173059
0.375630 0.167929 0.176051
0.450616 0.171074 0.179339
0.524275 0.176090 0.184282
0.596034 0.183181 0.191151
0.669592 0.191829 0.200043
0.739273 0.202060 0.210039
0.814540 0.214835 0.222456
0.895595 0.224871 0.230583
0.965961 0.255729 0.261260
1.007422 0.352762 0.356374
0.028832 0.234580 0.168065
0.025713 0.233733 0.165957
0.061580 0.226196 0.155464
0.153214 0.219035 0.161764
0.214540 0.215261 0.153714
0.294231 0.220513 0.155654
0.371760 0.223644 0.158963
0.446098 0.226785 0.164049
0.519019 0.231216 0.171080
0.590545 0.236816 0.179678
0.664342 0.244854 0.189954
0.733761 0.252548 0.201712
0.809262 0.262803 0.214477
0.890386 0.270542 0.223357
0.965873 0.291103 0.248041
1.007602 0.377443 0.352301
0.031764 0.302862 0.163900
0.029496 0.302388 0.161660
0.054546 0.296580 0.148143
0.133427 0.287714 0.143806
0.208716 0.286178 0.139525
0.279645 0.281047 0.129934
0.360721 0.286178 0.139525
0.436777 0.289432 0.147799
0.510757 0.292950 0.156899
0.583134 0.297235 0.167365
0.657173 0.303410 0.178956
0.728447 0.309803 0.191495
0.804194 0.318824 0.205317
0.884122 0.327527 0.216900
0.966036 0.339765 0.234706
1.007761 0.414440 0.352127
0.036247 0.369087 0.161744
0.034997 0.368805 0.159700
0.056757 0.364954 0.145987
0.119127 0.356256 0.131342
0.201507 0.356625 0.130828
0.277418 0.353100 0.127069
0.347245 0.348243 0.116118
0.426171 0.353100 0.130229
0.501434 0.356464 0.142018
0.574674 0.359986 0.154078
0.649929 0.365892 0.168266
0.721004 0.370443 0.181387
0.797161 0.378353 0.196818
0.876767 0.388003 0.212212
0.966304 0.394065 0.213622
1.008081 0.458139 0.351633
0.041431 0.434502 0.160943
0.040737 0.434301 0.159071
0.061236 0.431352 0.146239
0.110919 0.424890 0.123354
0.197611 0.424414 0.127020
0.272509 0.422093 0.124091
