MyTube/Resources/LUTs/tinted_shades.cube
LUT_3D_SIZE 6
0.014590 0.096927 0.062147
0.103371 0.096927 0.062147
0.351569 0.096927 0.062147
0.596628 0.096927 0.062147
0.811516 0.096927 0.062147
0.974633 0.096927 0.062147
0.014590 0.222147 0.062147
0.102537 0.222147 0.062147
0.351569 0.218735 0.062147
0.596628 0.213671 0.062147
0.811516 0.205031 0.062147
0.974633 0.192683 0.062147
0.014590 0.437043 0.062147
0.098392 0.437043 0.062147
0.351569 0.437043 0.062147
0.596628 0.425694 0.062147
0.811516 0.406784 0.062147
0.974633 0.377742 0.062147
0.014590 0.648638 0.062147
0.092992 0.648638 0.062147
0.338406 0.648638 0.062147
0.596628 0.648638 0.062147
0.811516 0.619542 0.062147
0.974633 0.575118 0.062147
0.014590 0.834364 0.062147
0.084070 0.834364 0.062147
0.316068 0.834364 0.062147
0.562430 0.834364 0.062147
0.811516 0.835075 0.062147
0.974633 0.775205 0.062147
0.014590 0.976206 0.062147
0.072398 0.976206 0.062147
0.282861 0.976206 0.062147
0.511475 0.976206 0.062147
0.744303 0.976206 0.062147
0.974633 0.976206 0.062147
0.014590 0.096927 0.185926
0.102537 0.096927 0.185926
0.351569 0.096927 0.182466
0.596628 0.096927 0.177297
0.811516 0.096927 0.168512
0.974633 0.096927 0.155953
0.014590 0.222147 0.185926
0.103371 0.222147 0.185926
0.351569 0.222147 0.185926
0.596628 0.222147 0.185926
0.811516 0.222147 0.185926
0.974633 0.222147 0.185926
0.014590 0.437043 0.182466
0.103371 0.437043 0.186675
0.351569 0.437043 0.185926
0.596628 0.428161 0.185926
0.811516 0.412152 0.185926
0.974633 0.390287 0.185926
0.014590 0.648638 0.177297
0.103371 0.648638 0.186015
0.341269 0.648638 0.185926
0.596628 0.648638 0.185926
0.811516 0.621120 0.185926
0.974633 0.580984 0.185926
0.014590 0.834364 0.168635
0.102196 0.834364 0.185253
0.323466 0.834364 0.185926
0.565097 0.834364 0.185926
0.811516 0.834451 0.185926
0.974633 0.777585 0.185926
0.014590 0.976206 0.155953
0.103371 0.976206 0.185996
0.297436 0.976206 0.185926
0.518290 0.976206 0.185926
0.746240 0.976206 0.185926
0.974633 0.976206 0.185926
0.014590 0.096927 0.404443
0.098392 0.096927 0.404443
0.351569 0.096927 0.404443
0.596628 0.096927 0.392907
0.811516 0.096927 0.373672
0.974633 0.096927 0.344151
0.014590 0.218735 0.404443
0.103371 0.222884 0.404443
0.351569 0.222147 0.404443
0.596628 0.222147 0.395453
0.811516 0.222147 0.379165
0.974633 0.222147 0.356915
0.014590 0.437043 0.404443
0.103371 0.437043 0.404443
0.351569 0.437043 0.404443
0.596628 0.437043 0.404443
0.811516 0.437043 0.404443
0.974633 0.437043 0.404443
0.014590 0.648638 0.392907
0.103371 0.648638 0.395120
0.351569 0.648638 0.404443
0.596628 0.648638 0.404443
0.811516 0.630236 0.404443
0.974633 0.604313 0.404443
0.014590 0.834364 0.373299
0.103371 0.834364 0.379913
0.351569 0.834364 0.404443
0.575546 0.834364 0.404443
0.811516 0.834334 0.404443
0.974633 0.787048 0.404443
0.014590 0.976206 0.344151
0.103371 0.976206 0.357410
0.351569 0.976206 0.404443
0.545285 0.976206 0.404443
0.756690 0.976206 0.404443
0.974633 0.976206 0.404443
0.014590 0.096927 0.619651
0.092992 0.096927 0.619651
0.338406 0.096927 0.619651
0.596628 0.096927 0.619651
0.811516 0.096927 0.590084
0.974633 0.096927 0.544899
0.014590 0.213671 0.619651
0.103371 0.222248 0.619651
0.341269 0.222147 0.619652
0.596628 0.222147 0.619652
0.811516 0.222147 0.591635
0.974633 0.222147 0.550856
0.014590 0.425694 0.619651
0.103371 0.427856 0.619651
0.351569 0.437043 0.619651
0.596628 0.437043 0.619651
0.811516 0.437043 0.600934
0.974633 0.437043 0.574604
0.014590 0.648638 0.619651
0.103371 0.648638 0.619651
0.351569 0.648638 0.619651
0.596628 0.648638 0.619651
0.811516 0.648638 0.619651
0.974633 0.648638 0.619651
0.014590 0.834364 0.589611
0.103371 0.834364 0.591795
0.351569 0.834364 0.601154
0.596628 0.834364 0.619651
0.811516 0.834268 0.619651
0.974633 0.806005 0.619651
0.014590 0.976206 0.544899
0.103371 0.976206 0.551469
0.351569 0.976206 0.574604
0.596628 0.976206 0.619651
0.778589 0.976206 0.619651
0.974633 0.976206 0.619651
0.014590 0.096927 0.808544
0.084070 0.096927 0.808544
0.316068 0.096927 0.808544
0.562430 0.096927 0.808544
0.811516 0.096927 0.809227
0.974633 0.096927 0.748361
0.014590 0.205153 0.808544
0.102196 0.221485 0.808544
0.323466 0.222147 0.808544
0.565097 0.222147 0.808544
0.811516 0.222147 0.808672
0.974633 0.222147 0.750798
0.014590 0.406420 0.808544
0.103371 0.412896 0.808544
0.351569 0.437043 0.808544
0.575546 0.437043 0.808544
0.811516 0.437043 0.808472
0.974633 0.437043 0.760397
0.014590 0.619089 0.808544
0.103371 0.621250 0.808544
0.351569 0.630430 0.808544
0.596628 0.648638 0.808544
0.811516 0.648638 0.808407
0.974633 0.648638 0.779702
0.014590 0.834364 0.808544
0.103371 0.834364 0.808544
0.351569 0.834364 0.808544
0.596628 0.834364 0.808544
0.811516 0.834364 0.808544
0.974633 0.834364 0.808544
0.014590 0.976206 0.748361
0.103371 0.976206 0.750642
0.351569 0.976206 0.760397
0.596628 0.976206 0.779702
0.812545 0.976206 0.808544
0.974633 0.976206 0.808544
0.014590 0.096927 0.953117
0.072398 0.096927 0.953117
0.282861 0.096927 0.953117
0.511475 0.096927 0.953117
0.744303 0.096927 0.953117
0.974633 0.096927 0.953117
0.014590 0.192683 0.953117
0.103371 0.222215 0.953117
0.297436 0.222147 0.953117
0.518290 0.222147 0.953117
0.746240 0.222147 0.953117
0.974633 0.222147 0.953117
0.014590 0.377742 0.953117
0.103371 0.390765 0.953117
0.351569 0.437043 0.953117
0.545285 0.437043 0.953117
0.756690 0.437043 0.953117
0.974633 0.437043 0.953117
0.014590 0.575118 0.953117
0.103371 0.581589 0.953117
0.351569 0.604313 0.953117
0.596628 0.648638 0.953117
0.778589 0.648638 0.953117
0.974633 0.648638 0.953117
0.014590 0.775205 0.953117
0.103371 0.777351 0.953117
0.351569 0.787048 0.953117
0.596628 0.806005 0.953117
0.812545 0.834364 0.953117
0.974633 0.834364 0.953117
0.014590 0.976206 0.953117
0.103371 0.976206 0.953117
0.351569 0.976206 0.953117
0.596628 0.976206 0.953117
0.811516 0.976206 0.953117
0.974633 0.976206 0.953117
