MyTube/Resources/LUTs/tinted_shades.cube
LUT_3D_SIZE 16
0.014590 0.096927 0.062147
0.019557 0.096927 0.062147
0.044159 0.096927 0.062147
0.103371 0.096927 0.062147
0.183148 0.096927 0.062147
0.268581 0.096927 0.062147
0.351569 0.096927 0.062147
0.434644 0.096927 0.062147
0.516881 0.096927 0.062147
0.596628 0.096927 0.062147
0.673508 0.096927 0.062147
0.746223 0.096927 0.062147
0.811516 0.096927 0.062147
0.871597 0.096927 0.062147
0.925622 0.096927 0.062147
0.974633 0.096927 0.062147
0.014590 0.110930 0.062147
0.019557 0.110930 0.062147
0.044159 0.111941 0.062147
0.103371 0.111941 0.062147
0.183148 0.110691 0.062147
0.268581 0.110454 0.062147
0.351569 0.110691 0.062147
0.434644 0.110454 0.062147
0.516881 0.110216 0.062147
0.596628 0.109929 0.062147
0.673508 0.109202 0.062147
0.746223 0.109929 0.062147
0.811516 0.108515 0.062147
0.871597 0.107933 0.062147
0.925622 0.107496 0.062147
0.974633 0.106916 0.062147
0.014590 0.157586 0.062147
0.019637 0.157586 0.062147
0.044159 0.157586 0.062147
0.103604 0.158604 0.062147
0.183148 0.156980 0.062147
0.268581 0.157115 0.062147
0.351569 0.155948 0.062147
0.434644 0.155083 0.062147
0.516881 0.154202 0.062147
0.596628 0.153132 0.062147
0.673508 0.151152 0.062147
0.746223 0.150095 0.062147
0.811516 0.148031 0.062147
0.871597 0.145770 0.062147
0.925622 0.143964 0.062147
0.974633 0.141707 0.062147
0.014590 0.222147 0.062147
0.019671 0.222147 0.062147
0.044159 0.222147 0.062147
0.102537 0.222147 0.062147
0.183148 0.220774 0.062147
0.268581 0.220237 0.062147
0.351569 0.218735 0.062147
0.434644 0.217179 0.062147
0.516881 0.215592 0.062147
0.596628 0.213671 0.062147
0.673508 0.211528 0.062147
0.746223 0.208589 0.062147
0.811516 0.205031 0.062147
0.871597 0.200824 0.062147
0.925622 0.196904 0.062147
0.974633 0.192683 0.062147
0.014590 0.292741 0.062147
0.019630 0.292741 0.062147
0.044159 0.292741 0.062147
0.102414 0.292741 0.062147
0.184321 0.292873 0.062147
0.268581 0.291696 0.062147
0.351569 0.288827 0.062147
0.434644 0.286635 0.062147
0.516881 0.284351 0.062147
0.596628 0.281567 0.062147
0.673508 0.278263 0.062147
0.746223 0.274446 0.062147
0.811516 0.269639 0.062147
0.871597 0.264539 0.062147
0.925622 0.257433 0.062147
0.974633 0.251323 0.062147
0.014590 0.364889 0.062147
0.019557 0.364889 0.062147
0.043482 0.364889 0.062147
0.101021 0.364889 0.062147
0.181962 0.365182 0.062147
0.268581 0.365400 0.062147
0.351569 0.362110 0.062147
0.434644 0.359277 0.062147
0.516881 0.356353 0.062147
0.596628 0.352778 0.062147
0.673508 0.348249 0.062147
0.746223 0.343636 0.062147
0.811516 0.337842 0.062147
0.871597 0.329863 0.062147
0.925622 0.321548 0.062147
0.974633 0.313583 0.062147
0.014590 0.437043 0.062147
0.019464 0.437043 0.062147
0.043482 0.437043 0.062147
0.098392 0.437043 0.062147
0.179597 0.437043 0.062147
0.265056 0.436642 0.062147
0.351569 0.437043 0.062147
0.434644 0.433586 0.062147
0.516881 0.430029 0.062147
0.596628 0.425694 0.062147
0.673508 0.419843 0.062147
0.746223 0.414470 0.062147
0.811516 0.406784 0.062147
0.871597 0.397087 0.062147
0.925622 0.387427 0.062147
0.974633 0.377742 0.062147
0.014590 0.508779 0.062147
0.019374 0.508779 0.062147
0.042813 0.508779 0.062147
0.096972 0.508779 0.062147
0.176777 0.508779 0.062147
0.261526 0.508779 0.062147
0.347552 0.508779 0.062147
0.434644 0.508779 0.062147
0.516881 0.504592 0.062147
0.596628 0.499480 0.062147
0.673508 0.493404 0.062147
0.746223 0.486270 0.062147
0.811516 0.476830 0.062147
0.871597 0.466307 0.062147
0.925622 0.454434 0.062147
0.974633 0.442926 0.062147
0.014590 0.579771 0.062147
0.019282 0.579771 0.062147
0.042148 0.579771 0.062147
0.094428 0.579771 0.062147
0.175011 0.579771 0.062147
0.259023 0.579771 0.062147
0.343426 0.579771 0.062147
0.429802 0.579771 0.062147
0.516881 0.579771 0.062147
0.596628 0.573884 0.062147
0.673508 0.566553 0.062147
0.746223 0.558647 0.062147
0.811516 0.547440 0.062147
0.871597 0.535259 0.062147
0.925622 0.522043 0.062147
0.974633 0.508800 0.062147
0.014590 0.648638 0.062147
0.019170 0.648638 0.062147
0.041494 0.648638 0.062147
0.092992 0.648638 0.062147
0.171158 0.648638 0.062147
0.254283 0.648638 0.062147
0.338406 0.648638 0.062147
0.423882 0.648638 0.062147
0.510032 0.648638 0.062147
0.596628 0.648638 0.062147
0.672557 0.640461 0.062147
0.746223 0.631338 0.062147
0.811516 0.619542 0.062147
0.871597 0.605598 0.062147
0.925622 0.590066 0.062147
0.974633 0.575118 0.062147
0.014590 0.714341 0.062147
0.019034 0.714341 0.062147
0.040196 0.714341 0.062147
0.090382 0.714341 0.062147
0.167301 0.714341 0.062147
0.249340 0.714341 0.062147
0.332183 0.714341 0.062147
0.416561 0.714341 0.062147
0.501631 0.714341 0.062147
0.587182 0.714341 0.062147
0.673629 0.714341 0.062147
0.746165 0.703187 0.062147
0.811516 0.689837 0.062147
0.871597 0.676145 0.062147
0.925622 0.658352 0.062147
0.974633 0.641617 0.062147
0.014590 0.776833 0.062147
0.018875 0.776833 0.062147
0.039562 0.776833 0.062147
0.086693 0.776833 0.062147
0.163529 0.776833 0.062147
0.243073 0.776833 0.062147
0.324877 0.776833 0.062147
0.407971 0.776833 0.062147
0.491765 0.776833 0.062147
0.575982 0.776833 0.062147
0.660196 0.776833 0.062147
0.745564 0.777902 0.062147
0.811516 0.762449 0.062147
0.871597 0.746082 0.062147
0.925622 0.726980 0.062147
0.974633 0.708509 0.062147
0.014590 0.834364 0.062147
0.018690 0.834364 0.062147
0.038306 0.834364 0.062147
0.084070 0.834364 0.062147
0.157065 0.834364 0.062147
0.236223 0.834364 0.062147
0.316068 0.834364 0.062147
0.397576 0.834364 0.062147
0.479761 0.834364 0.062147
0.562430 0.834364 0.062147
0.644661 0.834364 0.062147
0.728511 0.834364 0.062147
0.811516 0.835075 0.062147
0.871597 0.815858 0.062147
0.925622 0.795389 0.062147
0.974633 0.775205 0.062147
0.014590 0.886351 0.062147
0.018477 0.886351 0.062147
0.037082 0.886351 0.062147
0.080410 0.886351 0.062147
0.151361 0.886351 0.062147
0.226296 0.886351 0.062147
0.305636 0.886351 0.062147
0.385292 0.886351 0.062147
0.465661 0.886351 0.062147
0.546458 0.886351 0.062147
0.626986 0.886351 0.062147
0.708980 0.886351 0.062147
0.789148 0.886559 0.062147
0.871597 0.886054 0.062147
0.925622 0.864207 0.062147
0.974633 0.842359 0.062147
0.014590 0.932785 0.062147
0.018251 0.932785 0.062147
0.035883 0.932785 0.062147
0.075830 0.932785 0.062147
0.143363 0.932785 0.062147
0.217442 0.932785 0.062147
0.294106 0.932785 0.062147
0.371690 0.932785 0.062147
0.449995 0.932785 0.062147
0.528789 0.932785 0.062147
0.607818 0.932785 0.062147
0.687770 0.932785 0.062147
0.765626 0.932785 0.062147
0.845718 0.933628 0.062147
0.925622 0.932785 0.062147
0.974633 0.909308 0.062147
0.014590 0.976206 0.062147
0.018036 0.976206 0.062147
0.034707 0.976206 0.062147
0.072398 0.976206 0.062147
0.135632 0.976206 0.062147
0.208785 0.976206 0.062147
0.282861 0.976206 0.062147
0.358343 0.976206 0.062147
0.434659 0.976206 0.062147
0.511475 0.976206 0.062147
0.587776 0.976206 0.062147
0.665762 0.976206 0.062147
0.744303 0.976206 0.062147
0.820986 0.976206 0.062147
0.898591 0.976206 0.062147
0.974633 0.976206 0.062147
0.014590 0.096927 0.074255
0.019557 0.096927 0.074255
0.044159 0.096927 0.075171
0.103371 0.096927 0.075171
0.183148 0.096927 0.074039
0.268581 0.096927 0.073832
0.351569 0.096927 0.074039
0.434644 0.096927 0.073832
0.516881 0.096927 0.073617
0.596628 0.096927 0.073362
0.673508 0.096927 0.072714
0.746223 0.096927 0.073362
0.811516 0.096927 0.072105
0.871597 0.096927 0.071589
0.925622 0.096927 0.071204
0.974633 0.096927 0.070694
0.014590 0.110930 0.074255
0.019557 0.110930 0.074255
0.044159 0.110930 0.074255
0.103371 0.110930 0.074255
0.183148 0.110930 0.074255
0.268581 0.110930 0.074255
0.351569 0.110930 0.074255
0.434644 0.110930 0.074255
0.516881 0.110930 0.074255
0.596628 0.110930 0.074255
0.673508 0.110930 0.074255
0.746223 0.110930 0.074255
0.811516 0.110930 0.074255
0.871597 0.110930 0.074255
0.925622 0.110930 0.074255
0.974633 0.110930 0.074255
0.014590 0.157586 0.074440
0.019557 0.157586 0.074255
0.044159 0.157586 0.075354
0.103371 0.157586 0.074255
0.183148 0.157123 0.074255
0.268581 0.157426 0.074255
0.351569 0.156110 0.074255
0.434644 0.155395 0.074255
0.516881 0.154697 0.074255
0.596628 0.153830 0.074255
0.673508 0.152663 0.074255
0.746223 0.151800 0.074255
0.811516 0.150528 0.074255
0.871597 0.148746 0.074255
0.925622 0.146456 0.074255
0.974633 0.144674 0.074255
0.014590 0.222147 0.074520
0.019557 0.222147 0.074255
0.044159 0.222147 0.073609
0.103371 0.222147 0.074255
0.183148 0.220857 0.074255
0.268581 0.220426 0.074255
0.351569 0.218833 0.074255
0.434644 0.217387 0.074255
0.516881 0.215913 0.074255
0.596628 0.214133 0.074255
0.673508 0.211843 0.074255
0.746223 0.209026 0.074255
0.811516 0.205750 0.074255
0.871597 0.201874 0.074255
0.925622 0.198639 0.074255
0.974633 0.194759 0.074255
0.014590 0.292741 0.074426
0.019557 0.292741 0.074255
0.044159 0.292741 0.074426
0.102196 0.292741 0.074255
0.184321 0.292957 0.074255
0.268581 0.291819 0.074255
0.351569 0.288872 0.074255
0.434644 0.286751 0.074255
0.516881 0.284538 0.074255
0.596628 0.281881 0.074255
0.673508 0.278423 0.074255
0.746223 0.275773 0.074255
0.811516 0.269848 0.074255
0.871597 0.265020 0.074255
0.925622 0.258671 0.074255
0.974633 0.252811 0.074255
0.014590 0.364889 0.074248
0.019557 0.364889 0.074255
0.044159 0.364889 0.075170
0.101022 0.364889 0.074255
0.181961 0.365227 0.074255
0.268581 0.365481 0.074255
0.351569 0.362155 0.074255
0.434644 0.359360 0.074255
0.516881 0.356451 0.074255
0.596628 0.352970 0.074255
0.673508 0.348354 0.074255
0.746223 0.343833 0.074255
0.811516 0.337706 0.074255
0.871597 0.329941 0.074255
0.925622 0.322449 0.074255
0.974633 0.314676 0.074255
0.014590 0.437043 0.074039
0.019557 0.437043 0.074255
0.043482 0.437043 0.074960
0.098672 0.437043 0.074255
0.179597 0.437043 0.074255
0.265056 0.436651 0.074255
0.351569 0.437043 0.074255
0.434644 0.433594 0.074255
0.516881 0.430100 0.074255
0.596628 0.425803 0.074255
0.673508 0.420945 0.074255
0.746223 0.414632 0.074255
0.811516 0.406453 0.074255
0.871597 0.398898 0.074255
0.925622 0.388139 0.074255
0.974633 0.378575 0.074255
0.014590 0.508779 0.073832
0.019557 0.508779 0.074255
0.042813 0.508779 0.073832
0.097515 0.508779 0.074255
0.176788 0.508779 0.074255
0.261526 0.508779 0.074255
0.347561 0.508779 0.074255
0.434644 0.508779 0.074255
0.516881 0.504645 0.074255
0.596628 0.499534 0.074255
0.673508 0.493456 0.074255
0.746223 0.486300 0.074255
0.811516 0.476310 0.074255
0.871597 0.466956 0.074255
0.925622 0.454959 0.074255
0.974633 0.443584 0.074255
0.014590 0.579771 0.073617
0.019557 0.579771 0.074255
0.042148 0.579771 0.073617
0.096368 0.579771 0.074255
0.175079 0.579771 0.074255
0.259067 0.579771 0.074255
0.343502 0.579771 0.074255
0.429827 0.579771 0.074255
0.516881 0.579771 0.074255
0.596628 0.573917 0.074255
0.673508 0.566553 0.074255
0.746223 0.558694 0.074255
0.811516 0.547868 0.074255
0.871597 0.535733 0.074255
0.925622 0.522430 0.074255
0.974633 0.509271 0.074255
0.014590 0.648638 0.073362
0.019557 0.648638 0.074255
0.042148 0.648638 0.074271
0.094090 0.648638 0.074255
0.171298 0.648638 0.074255
0.254337 0.648638 0.074255
0.338561 0.648638 0.074255
0.423936 0.648638 0.074255
0.510082 0.648638 0.074255
0.596628 0.648638 0.074255
0.672600 0.640461 0.074255
0.746223 0.631338 0.074255
0.811516 0.618872 0.074255
0.871597 0.605987 0.074255
0.925622 0.590383 0.074255
0.974633 0.575488 0.074255
0.014590 0.714341 0.073040
0.019557 0.714341 0.074255
0.040841 0.714341 0.073949
0.091846 0.714341 0.074255
0.167545 0.714341 0.074255
0.249504 0.714341 0.074255
0.332427 0.714341 0.074255
0.416779 0.714341 0.074255
0.501734 0.714341 0.074255
0.587195 0.714341 0.074255
0.672541 0.714341 0.074255
0.746188 0.704238 0.074255
0.811516 0.690097 0.074255
0.871597 0.676443 0.074255
0.925622 0.658528 0.074255
0.974633 0.641911 0.074255
0.014590 0.776833 0.072672
0.019557 0.776833 0.074255
0.040196 0.776833 0.073578
0.088568 0.776833 0.074255
0.162689 0.776833 0.074255
0.243334 0.776833 0.074255
0.325207 0.776833 0.074255
0.408215 0.776833 0.074255
0.491930 0.776833 0.074255
0.576073 0.776833 0.074255
0.660368 0.776833 0.074255
0.745695 0.777902 0.074255
0.811516 0.762648 0.074255
0.871597 0.746249 0.074255
0.925622 0.727058 0.074255
0.974633 0.708690 0.074255
0.014590 0.834364 0.072238
0.019557 0.834364 0.074255
0.038929 0.834364 0.074053
0.085358 0.834364 0.074255
0.158696 0.834364 0.074255
0.236548 0.834364 0.074255
0.316510 0.834364 0.074255
0.397882 0.834364 0.074255
0.480024 0.834364 0.074255
0.562558 0.834364 0.074255
0.644904 0.834364 0.074255
0.728700 0.834364 0.074255
0.811516 0.834136 0.074255
0.871597 0.816034 0.074255
0.925622 0.795529 0.074255
0.974633 0.775394 0.074255
0.014590 0.886351 0.071740
0.019557 0.886351 0.074255
0.038306 0.886351 0.074459
0.081198 0.886351 0.074255
0.151929 0.886351 0.074255
0.227918 0.886351 0.074255
0.306215 0.886351 0.074255
0.385737 0.886351 0.074255
0.466005 0.886351 0.074255
0.546712 0.886351 0.074255
0.627368 0.886351 0.074255
0.709302 0.886351 0.074255
0.790330 0.886550 0.074255
0.871597 0.886150 0.074255
0.925622 0.864198 0.074255
0.974633 0.842404 0.074255
0.014590 0.932785 0.071204
0.019557 0.932784 0.074255
0.037082 0.932785 0.073917
0.078170 0.932784 0.074255
0.145347 0.932784 0.074255
0.218033 0.932784 0.074255
0.294922 0.932784 0.074255
0.372328 0.932784 0.074255
0.450447 0.932784 0.074255
0.529178 0.932784 0.074255
0.608253 0.932784 0.074255
0.686981 0.932784 0.074255
0.766771 0.932784 0.074255
0.845718 0.933737 0.074255
0.925622 0.932784 0.074255
0.974633 0.909306 0.074255
0.014590 0.976206 0.070694
0.019557 0.976206 0.074255
0.035883 0.976206 0.074310
0.074245 0.976206 0.074255
0.138944 0.976206 0.074255
0.210716 0.976206 0.074255
0.283811 0.976206 0.074255
0.359153 0.976206 0.074255
0.435243 0.976206 0.074255
0.511895 0.976206 0.074255
0.588350 0.976206 0.074255
0.666152 0.976206 0.074255
0.744299 0.976206 0.074255
0.820986 0.976206 0.074255
0.898588 0.976206 0.074255
0.974633 0.976206 0.074255
0.014590 0.096927 0.120259
0.019637 0.096927 0.120259
0.044159 0.096927 0.120259
0.103604 0.096927 0.121288
0.183148 0.096927 0.119640
0.268581 0.096927 0.119786
0.351569 0.096927 0.118606
0.434644 0.096927 0.117714
0.516881 0.096927 0.116825
0.596628 0.096927 0.115731
0.673508 0.096927 0.113720
0.746223 0.096927 0.112633
0.811516 0.096927 0.110544
0.871597 0.096927 0.108241
0.925622 0.096927 0.106406
0.974633 0.096927 0.104110
0.014590 0.111127 0.120259
0.019557 0.110930 0.120259
0.044159 0.112147 0.120259
0.103371 0.110930 0.120259
0.183148 0.110930 0.119796
0.268581 0.110930 0.120100
0.351569 0.110930 0.118759
0.434644 0.110930 0.118027
0.516881 0.110930 0.117316
0.596628 0.110930 0.116438
0.673508 0.110930 0.115249
0.746223 0.110930 0.114371
0.811516 0.110930 0.113081
0.871597 0.110930 0.111265
0.925622 0.110930 0.108941
0.974633 0.110930 0.107126
0.014590 0.157586 0.120259
0.019557 0.157586 0.120259
0.044159 0.157586 0.120259
0.103371 0.157586 0.120259
0.183148 0.157586 0.120259
0.268581 0.157586 0.120259
0.351569 0.157586 0.120259
0.434644 0.157586 0.120259
0.516881 0.157586 0.120259
0.596628 0.157586 0.120259
0.673508 0.157586 0.120259
0.746223 0.157586 0.120259
0.811516 0.157586 0.120259
0.871597 0.157586 0.120259
0.925622 0.157586 0.120259
0.974633 0.157586 0.120259
0.014590 0.222147 0.120560
0.019557 0.222147 0.120415
0.044159 0.222147 0.120560
0.103371 0.222147 0.120415
0.183148 0.221736 0.120259
0.268581 0.221800 0.120259
0.351569 0.219694 0.120259
0.434644 0.218728 0.120259
0.516881 0.217753 0.120259
0.596628 0.216564 0.120259
0.673508 0.215726 0.120259
0.746223 0.213531 0.120259
0.811516 0.211594 0.120259
0.871597 0.209132 0.120259
0.925622 0.206492 0.120259
0.974633 0.204060 0.120259
0.014590 0.292741 0.120171
0.019557 0.292741 0.120080
0.044159 0.292741 0.120171
0.102196 0.292741 0.120080
0.184321 0.292404 0.120259
0.268581 0.291591 0.120259
0.351569 0.289354 0.120259
0.434644 0.287554 0.120259
0.516881 0.285763 0.120259
0.596628 0.283507 0.120259
0.673508 0.280691 0.120259
0.746223 0.277400 0.120259
0.811516 0.273463 0.120259
0.871597 0.269740 0.120259
0.925622 0.264331 0.120259
0.974633 0.259564 0.120259
0.014590 0.364889 0.119459
0.019557 0.364889 0.119460
0.044159 0.364889 0.120498
0.101022 0.364889 0.120499
0.183148 0.364386 0.120259
0.268581 0.365886 0.120259
0.351569 0.362339 0.120259
0.434644 0.359777 0.120259
0.516881 0.357208 0.120259
0.596628 0.354123 0.120259
0.673508 0.350114 0.120259
0.746223 0.345975 0.120259
0.811516 0.340878 0.120259
0.871597 0.332945 0.120259
0.925622 0.326642 0.120259
0.974633 0.319711 0.120259
0.014590 0.437043 0.118606
0.019557 0.437043 0.118759
0.044159 0.437043 0.119640
0.099844 0.437043 0.119796
0.180785 0.437043 0.120259
0.265056 0.436885 0.120259
0.351569 0.437043 0.120259
0.434644 0.433829 0.120259
0.516881 0.430515 0.120259
0.596628 0.426503 0.120259
0.673508 0.421387 0.120259
0.746223 0.415331 0.120259
0.811516 0.408561 0.120259
0.871597 0.400671 0.120259
0.925622 0.391302 0.120259
0.974633 0.382380 0.120259
0.014590 0.508779 0.117714
0.019557 0.508779 0.118027
0.044159 0.508779 0.119786
0.098672 0.508779 0.120100
0.178213 0.508779 0.120259
0.261526 0.508779 0.120259
0.347811 0.508779 0.120259
0.434644 0.508779 0.120259
0.516881 0.504862 0.120259
0.596628 0.499985 0.120259
0.673508 0.493676 0.120259
0.746223 0.486744 0.120259
0.811516 0.478693 0.120259
0.871597 0.468909 0.120259
0.925622 0.457341 0.120259
0.974633 0.446525 0.120259
0.014590 0.579771 0.116825
0.019557 0.579771 0.117316
0.044159 0.579771 0.119920
0.097515 0.579771 0.120417
0.175600 0.579771 0.120259
0.259331 0.579771 0.120259
0.344013 0.579771 0.120259
0.430108 0.579771 0.120259
0.516881 0.579771 0.120259
0.596628 0.574098 0.120259
0.673508 0.567576 0.120259
0.746223 0.558826 0.120259
0.811516 0.548728 0.120259
0.871597 0.538015 0.120259
0.925622 0.524296 0.120259
0.974633 0.511580 0.120259
0.014590 0.648638 0.115731
0.019557 0.648638 0.116438
0.044159 0.648638 0.119870
0.096368 0.648638 0.120568
0.173299 0.648638 0.120259
0.254852 0.648638 0.120259
0.339345 0.648638 0.120259
0.424444 0.648638 0.120259
0.510318 0.648638 0.120259
0.596628 0.648638 0.120259
0.672831 0.641507 0.120259
0.746223 0.632343 0.120259
0.811516 0.620225 0.120259
0.871597 0.606742 0.120259
0.925622 0.591771 0.120259
0.974633 0.577257 0.120259
0.014590 0.714341 0.114412
0.019557 0.714341 0.115345
0.044159 0.714341 0.120615
0.095221 0.714341 0.120509
0.169918 0.714341 0.120259
0.251473 0.714341 0.120259
0.333643 0.714341 0.120259
0.417549 0.714341 0.120259
0.502211 0.714341 0.120259
0.587428 0.714341 0.120259
0.672960 0.714341 0.120259
0.746443 0.704238 0.120259
0.811516 0.691065 0.120259
0.871597 0.675809 0.120259
0.925622 0.659565 0.120259
0.974633 0.643302 0.120259
0.014590 0.776833 0.112852
0.019557 0.776833 0.114092
0.044159 0.776833 0.120088
0.092964 0.776833 0.120291
0.166704 0.776833 0.120259
0.245697 0.776833 0.120259
0.326881 0.776833 0.120259
0.409402 0.776833 0.120259
0.492709 0.776833 0.120259
0.576582 0.776833 0.120259
0.659958 0.776833 0.120259
0.746163 0.777902 0.120259
0.811516 0.762339 0.120259
0.871597 0.746204 0.120259
0.925622 0.727631 0.120259
0.974633 0.709622 0.120259
0.014590 0.834364 0.110973
0.019557 0.834364 0.112588
0.044159 0.834364 0.120278
0.090744 0.834364 0.119822
0.162091 0.834364 0.120259
0.239348 0.834364 0.120259
0.318718 0.834364 0.120259
0.399521 0.834364 0.120259
0.481189 0.834364 0.120259
0.563370 0.834364 0.120259
0.646073 0.834364 0.120259
0.728232 0.834364 0.120259
0.811516 0.834514 0.120259
0.871597 0.816758 0.120259
0.925622 0.795862 0.120259
0.974633 0.776108 0.120259
0.014590 0.886351 0.108769
0.019557 0.886351 0.110856
0.044159 0.886351 0.120140
0.088568 0.886351 0.120169
0.157205 0.886351 0.120259
0.231248 0.886351 0.120259
0.309155 0.886351 0.120259
0.387878 0.886351 0.120259
0.467585 0.886351 0.120259
0.547888 0.886351 0.120259
0.627770 0.886351 0.120259
0.709302 0.886351 0.120259
0.789148 0.885879 0.120259
0.872803 0.887599 0.120259
0.925622 0.864489 0.120259
0.974633 0.842856 0.120259
0.014590 0.932785 0.106406
0.019557 0.932784 0.108941
0.044159 0.932785 0.119850
0.085358 0.932784 0.120321
0.151369 0.932784 0.120259
0.223150 0.932784 0.120259
0.298581 0.932784 0.120259
0.375062 0.932784 0.120259
0.452621 0.932784 0.120259
0.530764 0.932784 0.120259
0.609227 0.932784 0.120259
0.688617 0.932784 0.120259
0.766771 0.932784 0.120259
0.846861 0.932964 0.120259
0.925622 0.932784 0.120259
0.974633 0.909596 0.120259
0.014590 0.976206 0.104110
0.019557 0.976206 0.107126
0.044159 0.976206 0.119614
0.083260 0.976206 0.120566
0.145713 0.976206 0.120259
0.216514 0.976206 0.120259
0.288228 0.976206 0.120259
0.362541 0.976206 0.120259
0.437884 0.976206 0.120259
0.513937 0.976206 0.120259
0.590976 0.976206 0.120259
0.667040 0.976206 0.120259
0.743431 0.976206 0.120259
0.820986 0.976206 0.120259
0.898949 0.976206 0.120259
0.974633 0.976206 0.120259
0.014590 0.096927 0.185926
0.019671 0.096927 0.185926
0.044159 0.096927 0.185926
0.102537 0.096927 0.185926
0.183148 0.096927 0.184511
0.268581 0.096927 0.183967
0.351569 0.096927 0.182466
0.434644 0.096927 0.180885
0.516881 0.096927 0.179265
0.596628 0.096927 0.177297
0.673508 0.096927 0.175113
0.746223 0.096927 0.172126
0.811516 0.096927 0.168512
0.871597 0.096927 0.164215
0.925622 0.096927 0.160243
0.974633 0.096927 0.155953
0.014590 0.111223 0.185926
0.019557 0.110930 0.185926
0.044159 0.110207 0.185926
0.103371 0.110930 0.185926
0.183148 0.110930 0.184614
0.268581 0.110930 0.184180
0.351569 0.110930 0.182540
0.434644 0.110930 0.181068
0.516881 0.110930 0.179584
0.596628 0.110930 0.177768
0.673508 0.110930 0.175439
0.746223 0.110930 0.172573
0.811516 0.110930 0.169252
0.871597 0.110930 0.165301
0.925622 0.110930 0.161995
0.974633 0.110930 0.158070
0.014590 0.157883 0.185926
0.019557 0.157745 0.185926
0.044159 0.157883 0.185926
0.103371 0.157745 0.185926
0.183148 0.157586 0.185490
0.268581 0.157586 0.185556
0.351569 0.157586 0.183430
0.434644 0.157586 0.182460
0.516881 0.157586 0.181441
0.596628 0.157586 0.180258
0.673508 0.157586 0.179387
0.746223 0.157586 0.177163
0.811516 0.157586 0.175201
0.871597 0.157586 0.172679
0.925622 0.157586 0.170012
0.974633 0.157586 0.167519
0.014590 0.222147 0.185926
0.019557 0.222147 0.185926
0.044159 0.222147 0.185926
0.103371 0.222147 0.185926
0.183148 0.222147 0.185926
0.268581 0.222147 0.185926
0.351569 0.222147 0.185926
0.434644 0.222147 0.185926
0.516881 0.222147 0.185926
0.596628 0.222147 0.185926
0.673508 0.222147 0.185926
0.746223 0.222147 0.185926
0.811516 0.222147 0.185926
0.871597 0.222147 0.185926
0.925622 0.222147 0.185926
0.974633 0.222147 0.185926
0.014590 0.292741 0.185255
0.019557 0.292741 0.185215
0.044159 0.292741 0.185255
0.103371 0.292741 0.186253
0.184321 0.292727 0.185926
0.268581 0.292692 0.185926
0.351569 0.290716 0.185926
0.434644 0.289643 0.185926
0.516881 0.288594 0.185926
0.596628 0.287286 0.185926
0.673508 0.285545 0.185926
0.746223 0.283212 0.185926
0.811516 0.281952 0.185926
0.871597 0.278193 0.185926
0.925622 0.275880 0.185926
0.974633 0.273112 0.185926
0.014590 0.364889 0.183974
0.019557 0.364889 0.183970
0.044159 0.364889 0.183974
0.103371 0.364889 0.186045
0.183148 0.364995 0.185926
0.268581 0.366077 0.185926
0.351569 0.362949 0.185926
0.434644 0.360958 0.185926
0.516881 0.359047 0.185926
0.596628 0.356575 0.185926
0.673508 0.353975 0.185926
0.746223 0.350481 0.185926
0.811516 0.345461 0.185926
0.871597 0.340168 0.185926
0.925622 0.335268 0.185926
0.974633 0.330009 0.185926
0.014590 0.437043 0.182466
0.019557 0.437043 0.182540
0.044159 0.437043 0.183503
0.103371 0.437043 0.186675
0.181961 0.437043 0.185926
0.265056 0.436403 0.185926
0.351569 0.437043 0.185926
0.434644 0.434352 0.185926
0.516881 0.431584 0.185926
0.596628 0.428161 0.185926
0.673508 0.423442 0.185926
0.746223 0.418978 0.185926
0.811516 0.412152 0.185926
0.871597 0.405544 0.185926
0.925622 0.397903 0.185926
0.974633 0.390287 0.185926
0.014590 0.508779 0.180885
0.019557 0.508779 0.181068
0.044159 0.508779 0.181891
0.102196 0.508779 0.185203
0.181198 0.508779 0.185926
0.262707 0.508779 0.185926
0.348441 0.508779 0.185926
0.434644 0.508779 0.185926
