MyTube/Resources/LUTs/vintage.cube
LUT_3D_SIZE 16
0.035348 0.032968 0.029328
0.041200 0.032968 0.029328
0.077345 0.032968 0.029328
0.136063 0.032399 0.029328
0.202115 0.033061 0.029328
0.270966 0.033078 0.029328
0.341521 0.033061 0.029328
0.414386 0.033078 0.029328
0.489639 0.033101 0.029328
0.564804 0.033109 0.029328
0.643357 0.033101 0.029328
0.715575 0.033109 0.029328
0.794870 0.033231 0.029328
0.870944 0.033269 0.029328
0.944343 0.033231 0.029328
1.007530 0.033269 0.029328
0.035340 0.038323 0.029328
0.041138 0.038323 0.029328
0.077333 0.038323 0.029328
0.135977 0.038323 0.029328
0.202115 0.038882 0.029328
0.270966 0.038161 0.029328
0.341521 0.038262 0.029328
0.414386 0.038161 0.029328
0.489639 0.038120 0.029328
0.564804 0.038036 0.029328
0.643357 0.038738 0.029328
0.715575 0.038036 0.029328
0.794870 0.038394 0.029328
0.870944 0.038176 0.029328
0.944343 0.037778 0.029328
1.007530 0.037561 0.029328
0.035328 0.073356 0.029328
0.041278 0.073356 0.029328
0.078160 0.073356 0.029328
0.136170 0.071686 0.029328
0.202115 0.072462 0.029328
0.270966 0.071823 0.029328
0.341521 0.070799 0.029328
0.414386 0.070155 0.029328
0.489639 0.069732 0.029328
0.564804 0.069202 0.029328
0.643357 0.068904 0.029328
0.715575 0.067546 0.029328
0.794870 0.068282 0.029328
0.870944 0.067557 0.029328
0.944343 0.066630 0.029328
1.007530 0.065091 0.029328
0.035331 0.129903 0.029328
0.041275 0.129903 0.029328
0.078163 0.129903 0.029328
0.136167 0.130816 0.029328
0.202115 0.127888 0.029328
0.270966 0.126553 0.029328
0.341521 0.124262 0.029328
0.414386 0.122931 0.029328
0.489639 0.122035 0.029328
0.564804 0.120933 0.029328
0.643357 0.120227 0.029328
0.715575 0.118233 0.029328
0.794870 0.117378 0.029328
0.870944 0.117762 0.029328
0.944343 0.115580 0.029328
1.007530 0.112387 0.029328
0.035361 0.194024 0.029328
0.041152 0.194024 0.029328
0.077363 0.194024 0.029328
0.134156 0.194024 0.029328
0.202115 0.194333 0.029328
0.270966 0.190321 0.029328
0.341521 0.187550 0.029328
0.414386 0.185507 0.029328
0.489639 0.184124 0.029328
0.564804 0.182467 0.029328
0.643357 0.181245 0.029328
0.715575 0.178643 0.029328
0.794870 0.178948 0.029328
0.870944 0.175946 0.029328
0.944343 0.174170 0.029328
1.007530 0.169283 0.029328
0.035396 0.261469 0.029328
0.041001 0.261469 0.029328
0.076567 0.261469 0.029328
0.133021 0.261469 0.029328
0.198370 0.262315 0.029328
0.271984 0.263247 0.029328
0.341676 0.257260 0.029328
0.414386 0.254140 0.029328
0.489639 0.252282 0.029328
0.564804 0.249975 0.029328
0.643357 0.248258 0.029328
0.715575 0.245953 0.029328
0.794870 0.244746 0.029328
0.870944 0.242033 0.029328
0.944343 0.238732 0.029328
1.007530 0.232036 0.029328
0.035435 0.331311 0.029328
0.040873 0.331311 0.029328
0.075785 0.331311 0.029328
0.131018 0.331311 0.029328
0.195142 0.331099 0.029328
0.267027 0.330533 0.029328
0.342389 0.332148 0.029328
0.414516 0.327373 0.029328
0.489639 0.324685 0.029328
0.564804 0.321891 0.029328
0.643357 0.319454 0.029328
0.715575 0.316667 0.029328
0.794870 0.314826 0.029328
0.870944 0.312466 0.029328
0.944343 0.307559 0.029328
1.007530 0.298976 0.029328
0.035468 0.403921 0.029328
0.040817 0.403921 0.029328
0.074990 0.403921 0.029328
0.129118 0.403921 0.029328
0.193674 0.404084 0.029328
0.263551 0.403626 0.029328
0.337629 0.404084 0.029328
0.415159 0.404727 0.029328
0.489773 0.400754 0.029328
0.564804 0.397077 0.029328
0.643481 0.395353 0.029328
0.715575 0.390594 0.029328
0.794870 0.389253 0.029328
0.870944 0.383098 0.029328
0.944343 0.379613 0.029328
1.007530 0.369180 0.029328
0.035487 0.479598 0.029328
0.040787 0.479598 0.029328
0.074179 0.479598 0.029328
0.129972 0.479598 0.029328
0.191203 0.479598 0.029328
0.261929 0.479701 0.029328
0.334938 0.479598 0.029328
0.411244 0.479701 0.029328
0.490452 0.480411 0.029328
0.565014 0.475313 0.029328
0.643010 0.472645 0.029328
0.715809 0.467548 0.029328
0.794870 0.465379 0.029328
0.870944 0.459644 0.029328
0.944343 0.454331 0.029328
1.007530 0.442051 0.029328
0.035513 0.556071 0.029328
0.040706 0.556071 0.029328
0.075054 0.556071 0.029328
0.128036 0.556071 0.029328
0.191537 0.556071 0.029328
0.259614 0.556071 0.029328
0.332159 0.556071 0.029328
0.407700 0.556071 0.029328
0.485547 0.556253 0.029328
0.565854 0.556905 0.029328
0.642580 0.551717 0.029328
0.715503 0.546679 0.029328
0.794870 0.542763 0.029328
0.870944 0.537487 0.029328
0.944343 0.531474 0.029328
1.007530 0.517170 0.029328
0.035535 0.633361 0.029328
0.040662 0.633361 0.029328
0.074243 0.633361 0.029328
0.127066 0.633361 0.029328
0.189035 0.633361 0.029328
0.257569 0.633361 0.029328
0.329433 0.633361 0.029328
0.404421 0.633361 0.029328
0.481461 0.633361 0.029328
0.560334 0.633451 0.029328
0.644089 0.635712 0.029328
0.715615 0.627668 0.029328
0.794870 0.623052 0.029328
0.870944 0.617371 0.029328
0.944343 0.610388 0.029328
1.007530 0.594358 0.029328
0.035556 0.711616 0.029328
0.040632 0.711616 0.029328
0.072601 0.711616 0.029328
0.124304 0.711616 0.029328
0.186547 0.711616 0.029328
0.255503 0.711616 0.029328
0.326724 0.711616 0.029328
0.401094 0.711616 0.029328
0.477660 0.711616 0.029328
0.555740 0.711528 0.029328
0.636674 0.711616 0.029328
0.716816 0.712721 0.029328
0.794870 0.705802 0.029328
0.870944 0.700302 0.029328
0.944343 0.691691 0.029328
1.007530 0.673390 0.029328
0.035583 0.790185 0.029328
0.040555 0.790185 0.029328
0.073473 0.790185 0.029328
0.123288 0.790185 0.029328
0.186025 0.790185 0.029328
0.253570 0.790185 0.029328
0.324056 0.790185 0.029328
0.397981 0.790185 0.029328
0.473804 0.790185 0.029328
0.551531 0.790185 0.029328
0.630328 0.790185 0.029328
0.710065 0.790185 0.029328
0.797263 0.792076 0.029328
0.870944 0.784968 0.029328
0.944343 0.774142 0.029328
1.007530 0.753919 0.029328
0.035602 0.868502 0.029328
0.040493 0.868502 0.029328
0.072664 0.868502 0.029328
0.122296 0.868502 0.029328
0.184237 0.868502 0.029328
0.251176 0.868502 0.029328
0.321077 0.868502 0.029328
0.394329 0.868502 0.029328
0.469649 0.868502 0.029328
0.546644 0.868502 0.029328
0.624848 0.868502 0.029328
0.706182 0.868502 0.029328
0.785684 0.870221 0.029328
0.873447 0.870248 0.029328
0.944741 0.859262 0.029328
1.007530 0.836362 0.029328
0.035638 0.946790 0.029328
0.040482 0.946790 0.029328
0.071878 0.946790 0.029328
0.122282 0.946790 0.029328
0.181133 0.946790 0.029328
0.248223 0.946790 0.029328
0.317704 0.946790 0.029328
0.390083 0.946790 0.029328
0.464549 0.946790 0.029328
0.540933 0.946790 0.029328
0.618348 0.946790 0.029328
0.696737 0.946790 0.029328
0.779135 0.946562 0.029328
0.860009 0.946965 0.029328
0.947907 0.950282 0.029328
1.008123 0.922405 0.029328
0.035590 1.074015 0.028017
0.039640 1.074015 0.028017
0.067668 1.074015 0.028017
0.113888 1.074015 0.028017
0.172727 1.074015 0.027576
0.234892 1.074015 0.028110
0.303330 1.074015 0.028098
0.373653 1.074015 0.028110
0.446105 1.074015 0.028131
0.520430 1.074015 0.028138
0.595630 1.074015 0.028131
0.671889 1.074015 0.028138
0.752334 1.074008 0.028240
0.834593 1.074001 0.028277
0.917811 1.074589 0.028240
1.008721 1.075718 0.028277
0.035432 -0.469989 0.038105
0.041798 -0.469989 0.038105
0.079154 -0.469989 0.038105
0.138754 -0.469989 0.038105
0.205926 -0.469989 0.038829
0.276129 -0.469989 0.037383
0.346710 -0.469989 0.037596
0.419885 -0.469989 0.037383
0.495406 -0.469989 0.037254
0.570827 -0.469989 0.037110
0.649333 -0.469989 0.037254
0.721776 -0.469989 0.037110
0.800011 -0.469989 0.037612
0.874611 -0.469989 0.036661
0.947115 -0.469989 0.036398
1.008123 -0.469989 0.036060
0.035348 0.038323 0.036831
0.041154 0.038323 0.036837
0.077345 0.038323 0.036831
0.135995 0.038323 0.036837
0.202115 0.038777 0.036923
0.270966 0.038910 0.036933
0.341521 0.038777 0.036923
0.414386 0.038910 0.036933
0.489639 0.039007 0.036951
0.564804 0.039095 0.036960
0.643357 0.039007 0.036951
0.715575 0.039095 0.036960
0.794870 0.038960 0.037051
0.870944 0.039085 0.036485
0.944343 0.039586 0.037051
1.007530 0.039715 0.037093
0.035348 0.073356 0.037001
0.041062 0.073356 0.036817
0.078190 0.073356 0.037001
0.135864 0.071686 0.036817
0.202115 0.072833 0.036844
0.270966 0.072406 0.036844
0.341521 0.071166 0.036844
0.414386 0.070742 0.036844
0.489639 0.070407 0.036844
0.564804 0.070004 0.036844
0.643357 0.069580 0.036844
0.715575 0.069175 0.036844
0.794870 0.068079 0.036844
0.870944 0.068452 0.036844
0.944343 0.068079 0.036844
1.007530 0.066795 0.036844
0.035348 0.129903 0.036992
0.041062 0.129903 0.036821
0.079034 0.129903 0.036992
0.135864 0.130816 0.036821
0.202115 0.129005 0.036844
0.270966 0.126925 0.036844
0.341521 0.124457 0.036844
0.414386 0.123294 0.036844
0.489639 0.122488 0.036844
0.564804 0.121530 0.036844
0.643357 0.120675 0.036844
0.715575 0.119729 0.036844
0.794870 0.118399 0.036844
0.870944 0.118117 0.036844
0.944343 0.116608 0.036844
1.007530 0.113635 0.036844
0.035348 0.194024 0.036818
0.041199 0.194024 0.036838
0.077345 0.194024 0.036818
0.135144 0.194024 0.036838
0.202115 0.194504 0.036844
0.270966 0.190574 0.036844
0.341521 0.187753 0.036844
0.414386 0.185758 0.036844
0.489639 0.184382 0.036844
0.564804 0.182890 0.036844
0.643357 0.182461 0.036844
0.715575 0.180011 0.036844
0.794870 0.177745 0.036844
0.870944 0.177799 0.036844
0.944343 0.174881 0.036844
1.007530 0.170183 0.036844
0.035348 0.261469 0.036586
0.041384 0.261469 0.036848
0.076501 0.261469 0.037193
0.132654 0.261469 0.036848
0.198370 0.262468 0.036844
0.271984 0.262443 0.036844
0.341676 0.257411 0.036844
0.414386 0.254349 0.036844
0.489639 0.252552 0.036844
0.564804 0.250343 0.036844
0.643357 0.248527 0.036844
0.715575 0.245317 0.036844
0.794870 0.244360 0.036844
0.870944 0.241761 0.036844
0.944343 0.239352 0.036844
1.007530 0.232762 0.036844
0.035348 0.331311 0.036372
0.041560 0.331311 0.036880
0.075662 0.331311 0.036977
0.130173 0.331311 0.036880
0.195085 0.331108 0.036844
0.267024 0.331647 0.036844
0.342344 0.332157 0.036844
0.414511 0.327477 0.036844
0.489639 0.324827 0.036844
0.564804 0.322079 0.036844
0.643357 0.319595 0.036844
0.715575 0.316857 0.036844
0.794870 0.314122 0.036844
0.870944 0.310921 0.036844
0.944343 0.307870 0.036844
1.007530 0.299527 0.036844
0.035348 0.403921 0.036218
0.041688 0.403921 0.036903
0.074822 0.403921 0.036821
0.128531 0.403921 0.036903
0.192677 0.404073 0.036844
0.265584 0.403604 0.036844
0.337612 0.404073 0.036844
0.415134 0.404705 0.036844
0.489772 0.400722 0.036844
0.564804 0.397122 0.036844
0.643481 0.395364 0.036844
0.715575 0.391707 0.036844
0.794870 0.387408 0.036844
0.870944 0.385713 0.036844
0.944343 0.379856 0.036844
1.007530 0.369633 0.036844
0.035348 0.479598 0.036105
0.041781 0.479598 0.036890
0.075662 0.479598 0.037313
0.127739 0.479598 0.036890
0.193137 0.479598 0.036844
0.262954 0.479700 0.036844
0.334952 0.479598 0.036844
0.411256 0.479700 0.036844
0.490441 0.480401 0.036844
0.565010 0.475368 0.036844
0.643001 0.472635 0.036844
0.715801 0.467615 0.036844
0.794870 0.464475 0.036844
0.870944 0.460021 0.036844
0.944343 0.454548 0.036844
1.007530 0.442409 0.036844
0.035348 0.556071 0.035985
0.041869 0.556071 0.036901
0.074822 0.556071 0.037193
0.126961 0.556071 0.036901
0.190671 0.556071 0.036844
0.260719 0.556071 0.036844
0.332262 0.556071 0.036844
0.407782 0.556071 0.036844
0.485602 0.556251 0.036844
0.565834 0.556900 0.036844
0.642608 0.551715 0.036844
0.715468 0.546674 0.036844
0.794870 0.541830 0.036844
0.870944 0.537761 0.036844
0.944343 0.531678 0.036844
1.007530 0.517466 0.036844
0.035348 0.633361 0.035873
0.041957 0.633361 0.036936
0.074822 0.633361 0.037688
0.126170 0.633361 0.036936
0.188325 0.633361 0.036844
0.257695 0.633361 0.036844
0.329726 0.633361 0.036844
0.404544 0.633361 0.036844
0.481528 0.633361 0.036844
0.560396 0.633451 0.036844
0.644210 0.635712 0.036844
0.715725 0.627668 0.036844
0.794870 0.624616 0.036844
0.870944 0.617566 0.036844
0.944343 0.610739 0.036844
1.007530 0.594551 0.036844
0.035348 0.711616 0.035758
0.042041 0.711616 0.036970
0.073984 0.711616 0.037568
0.125380 0.711616 0.036970
0.187865 0.711616 0.036844
0.253681 0.711616 0.036844
0.327126 0.711616 0.036844
0.401329 0.711616 0.036844
0.477853 0.711616 0.036844
0.555874 0.711528 0.036844
0.635734 0.711616 0.036844
0.718199 0.712721 0.036844
0.794870 0.706888 0.036844
0.870944 0.698252 0.036844
0.944343 0.691590 0.036844
1.007530 0.673648 0.036844
0.035348 0.790185 0.035648
0.042128 0.790185 0.037002
0.073984 0.790185 0.036849
0.123693 0.790185 0.037002
0.185483 0.790185 0.036844
0.251741 0.790185 0.036844
0.324524 0.790185 0.036844
0.398134 0.790185 0.036844
0.474031 0.790185 0.036844
0.551638 0.790185 0.036844
0.630558 0.790185 0.036844
0.711392 0.790185 0.036844
0.797263 0.792202 0.036844
0.870944 0.784888 0.036844
0.944343 0.774293 0.036844
1.007530 0.753843 0.036844
0.035348 0.868502 0.035518
0.042216 0.868502 0.037022
0.073150 0.868502 0.036718
0.123814 0.868502 0.037022
0.183700 0.868502 0.036844
0.251421 0.868502 0.036844
0.321533 0.868502 0.036844
0.394582 0.868502 0.036844
0.469813 0.868502 0.036844
0.546784 0.868502 0.036844
0.626147 0.868502 0.036844
0.704016 0.868502 0.036844
0.785718 0.867809 0.036844
0.873447 0.870454 0.036844
0.944727 0.859332 0.036844
1.007530 0.836517 0.036844
0.035348 0.946790 0.035365
0.042347 0.946790 0.037021
0.073150 0.946790 0.037169
0.121282 0.946790 0.037021
0.183361 0.946790 0.036844
0.247524 0.946790 0.036844
0.318048 0.946790 0.036844
0.390383 0.946790 0.036844
0.464874 0.946790 0.036844
0.541202 0.946790 0.036844
0.617527 0.946790 0.036844
0.698183 0.946790 0.036844
0.779102 0.946522 0.036844
0.862492 0.946994 0.036844
0.947866 0.950245 0.036844
1.008121 0.922410 0.036844
0.035340 1.074015 0.029244
0.042107 1.074015 0.031446
0.069802 1.074015 0.031431
0.117353 1.074015 0.031446
0.173230 1.074015 0.031750
0.237377 1.074015 0.031318
0.303884 1.074015 0.031750
0.374139 1.074015 0.031877
0.446547 1.074015 0.031973
0.520806 1.074015 0.032054
0.596100 1.074015 0.031973
0.674631 1.074015 0.032054
0.752369 1.074006 0.031998
0.834593 1.073998 0.032154
0.917757 1.074586 0.032563
1.008718 1.075714 0.032721
0.035336 -0.469995 0.072638
0.041643 -0.469993 0.072525
0.079863 -0.469993 0.072638
0.138531 -0.469991 0.071689
0.205798 -0.469989 0.071232
0.276041 -0.469989 0.071292
0.346581 -0.469989 0.069562
0.419796 -0.469989 0.068804
0.495343 -0.469989 0.068270
0.570820 -0.469989 0.067688
0.649314 -0.469989 0.067443
0.721764 -0.469989 0.066040
0.800005 -0.469989 0.067059
0.874611 -0.469989 0.066281
0.947107 -0.469989 0.064602
1.008121 -0.469989 0.063030
0.035340 0.038526 0.067574
0.041053 0.038342 0.067605
0.078180 0.038526 0.067574
0.135850 0.038342 0.066782
0.202115 0.038323 0.066722
0.270966 0.038323 0.066130
0.341521 0.038323 0.065080
0.414386 0.038323 0.064496
0.489639 0.038323 0.064087
0.564804 0.038323 0.063627
0.643357 0.038323 0.063282
0.715575 0.038323 0.062823
0.794870 0.038323 0.062092
0.870944 0.038323 0.061603
0.944343 0.038323 0.061297
1.007530 0.038323 0.060031
0.035348 0.073351 0.067563
0.041154 0.073427 0.067669
0.077345 0.071677 0.066740
0.135995 0.073427 0.067669
0.202115 0.073367 0.067905
0.270966 0.074408 0.068011
0.341521 0.074201 0.067905
0.414386 0.074408 0.068011
0.489639 0.074561 0.068076
0.564804 0.074688 0.068140
0.643357 0.075398 0.068076
0.715575 0.075528 0.068140
0.794870 0.075538 0.068521
0.870944 0.074946 0.068617
0.944342 0.075538 0.068521
1.007530 0.075790 0.068617
0.035348 0.129903 0.067671
0.041200 0.129928 0.067636
0.077345 0.129903 0.066848
0.136063 0.130841 0.067636
0.202115 0.127985 0.067574
0.270966 0.127203 0.067574
0.341521 0.126162 0.067574
0.414386 0.125387 0.067574
0.489639 0.124918 0.067574
0.564804 0.124272 0.067574
0.643357 0.124004 0.067574
0.715575 0.124272 0.067574
0.794870 0.123028 0.067574
0.870944 0.122074 0.067574
0.944342 0.121212 0.067574
1.007530 0.119366 0.067574
0.035348 0.194024 0.066901
0.041200 0.194024 0.066937
0.077345 0.194024 0.066901
0.134230 0.194024 0.067766
0.202115 0.194486 0.067574
0.270966 0.190936 0.067574
0.341521 0.188679 0.067574
0.414386 0.187059 0.067574
0.489639 0.186070 0.067574
0.564804 0.184825 0.067574
0.643357 0.185122 0.067574
0.715575 0.181943 0.067574
0.794870 0.181164 0.067574
0.870944 0.181155 0.067574
0.944342 0.178278 0.067574
1.007530 0.174486 0.067574
0.035348 0.261469 0.065891
0.041200 0.261469 0.066054
0.077345 0.261469 0.066718
0.133314 0.261469 0.067704
0.198331 0.260718 0.067574
0.271984 0.263173 0.067574
0.341636 0.257691 0.067574
0.414386 0.255070 0.067574
0.489639 0.253524 0.067574
0.564804 0.251739 0.067574
0.643357 0.248487 0.067574
0.715575 0.247710 0.067574
0.794870 0.244865 0.067574
0.870944 0.245097 0.067574
0.944342 0.241859 0.067574
1.007530 0.236089 0.067574
0.035348 0.331311 0.064975
0.041200 0.331311 0.065256
0.078190 0.331311 0.066618
0.133314 0.331311 0.067722
0.196931 0.330964 0.067574
0.268021 0.330963 0.067574
0.342237 0.332018 0.067574
0.414484 0.327821 0.067574
0.489639 0.325520 0.067574
0.564804 0.323124 0.067574
0.643357 0.319246 0.067574
0.715575 0.319979 0.067574
0.794870 0.317208 0.067574
0.870944 0.313561 0.067574
0.944342 0.309926 0.067574
1.007530 0.302128 0.067574
0.035348 0.403921 0.064291
0.041200 0.403921 0.064643
0.078190 0.403921 0.066745
0.132399 0.403921 0.068753
0.194979 0.404066 0.067574
0.264472 0.403497 0.067574
0.338026 0.404066 0.067574
0.415067 0.404597 0.067574
0.489759 0.401068 0.067574
0.564804 0.397803 0.067574
0.643469 0.396744 0.067574
0.715575 0.391326 0.067574
0.794870 0.390035 0.067574
0.870944 0.386715 0.067574
0.944342 0.381472 0.067574
1.007530 0.371721 0.067574
0.035348 0.479598 0.063852
0.041200 0.479598 0.064226
0.078190 0.479598 0.067948
0.131488 0.479598 0.067503
0.193867 0.479598 0.067574
0.263221 0.479687 0.067574
0.335768 0.479598 0.067574
0.411551 0.479687 0.067574
0.490367 0.480334 0.067574
0.564989 0.475658 0.067574
0.642934 0.472565 0.067574
0.715841 0.469000 0.067574
0.794870 0.464649 0.067574
0.870944 0.461624 0.067574
0.944342 0.455818 0.067574
1.007530 0.444018 0.067574
0.035348 0.556071 0.063348
0.041200 0.556071 0.063790
0.078190 0.556071 0.066606
0.129659 0.556071 0.068709
0.193543 0.556071 0.067574
0.261278 0.556071 0.067574
0.333282 0.556071 0.067574
0.408377 0.556071 0.067574
0.485831 0.556238 0.067574
0.565789 0.556874 0.067574
0.641702 0.551700 0.067574
0.715460 0.545530 0.067574
0.794870 0.543883 0.067574
0.870944 0.539124 0.067574
0.944342 0.532530 0.067574
1.007530 0.518812 0.067574
0.035348 0.633361 0.062844
0.041200 0.633361 0.063352
0.079034 0.633361 0.066917
0.130574 0.633361 0.067435
0.192267 0.633361 0.067574
0.259434 0.633361 0.067574
0.330834 0.633361 0.067574
0.405319 0.633361 0.067574
0.482051 0.633361 0.067574
0.560618 0.633451 0.067574
0.643583 0.635712 0.067574
0.717220 0.627668 0.067574
0.794870 0.623958 0.067574
0.870944 0.618608 0.067574
0.944342 0.611256 0.067574
1.007530 0.595595 0.067574
0.035348 0.711616 0.062360
0.041200 0.711616 0.062911
0.079034 0.711616 0.068066
0.129659 0.711616 0.068636
0.190073 0.711616 0.067574
0.257684 0.711616 0.067574
0.328477 0.711616 0.067574
0.402400 0.711616 0.067574
0.478538 0.711616 0.067574
0.556358 0.711528 0.067574
0.635226 0.711616 0.067574
0.718616 0.712721 0.067574
0.794870 0.707530 0.067574
0.870944 0.701326 0.067574
0.944342 0.692142 0.067574
1.007530 0.674360 0.067574
0.035348 0.790185 0.061881
0.041200 0.790185 0.062508
0.079034 0.790185 0.066743
0.128749 0.790185 0.067393
0.189803 0.790185 0.067574
0.253875 0.790185 0.067574
0.326056 0.790185 0.067574
0.399371 0.790185 0.067574
0.474955 0.790185 0.067574
0.552291 0.790185 0.067574
0.631506 0.790185 0.067574
0.709708 0.790185 0.067574
0.797263 0.793576 0.067574
0.870944 0.783119 0.067574
0.944342 0.774455 0.067574
1.007530 0.754532 0.067574
0.035348 0.868502 0.061345
0.041200 0.868502 0.062037
0.079034 0.868502 0.067832
0.126931 0.868502 0.068553
0.188271 0.868502 0.067574
0.253739 0.868502 0.067574
0.323376 0.868502 0.067574
0.395981 0.868502 0.067574
0.470872 0.868502 0.067574
0.547562 0.868502 0.067574
0.624940 0.868502 0.067574
0.704779 0.868502 0.067574
0.785717 0.869253 0.067574
0.873447 0.871933 0.067574
0.944727 0.859479 0.067574
1.007530 0.836778 0.067574
0.035348 0.946790 0.060712
0.041200 0.946790 0.061430
0.079882 0.946790 0.067998
0.126931 0.946790 0.067097
0.187141 0.946791 0.067574
0.252059 0.946791 0.067574
0.320045 0.946791 0.067574
0.392023 0.946791 0.067574
0.466140 0.946791 0.067574
0.542086 0.946791 0.067574
0.618858 0.946791 0.067574
0.696785 0.946791 0.067574
0.779094 0.947844 0.067574
0.862492 0.945993 0.067574
0.947834 0.950328 0.067574
1.008115 0.922605 0.067574
0.035340 1.074015 0.047378
0.041139 1.074015 0.048703
0.079022 1.074015 0.057568
0.123214 1.074015 0.058261
0.178031 1.074015 0.057606
0.240647 1.074015 0.057923
0.307034 1.074015 0.058375
0.376571 1.074015 0.058693
0.448434 1.074015 0.058931
0.522267 1.074015 0.059135
0.598058 1.074015 0.059708
0.675030 1.074015 0.059914
0.753831 1.074039 0.059608
0.834593 1.074062 0.060734
0.918106 1.074612 0.060388
1.008707 1.075697 0.060734
0.035337 -0.469994 0.125376
0.041279 -0.469993 0.125105
0.079018 -0.469993 0.125376
0.138011 -0.469991 0.125105
0.205450 -0.469989 0.123528
0.275789 -0.469989 0.121211
0.346191 -0.469989 0.119016
0.419510 -0.469989 0.117605
0.495100 -0.469989 0.116608
0.570540 -0.469989 0.115470
0.649021 -0.469989 0.114814
0.721563 -0.469989 0.112785
0.799979 -0.469989 0.112283
0.874611 -0.469989 0.111809
0.947076 -0.469989 0.109605
1.008115 -0.469989 0.106484
0.035340 0.038524 0.117333
0.041051 0.038360 0.117333
0.078175 0.038524 0.117333
0.135852 0.038360 0.118234
0.202115 0.038323 0.116069
0.270966 0.038323 0.114887
0.341521 0.038323 0.112488
0.414386 0.038323 0.111319
0.489639 0.038323 0.110491
0.564804 0.038323 0.109545
0.643357 0.038323 0.108712
0.715575 0.038323 0.107769
0.794870 0.038323 0.107303
0.870944 0.038323 0.105359
0.944343 0.038323 0.104648
1.007530 0.038323 0.101830
0.035348 0.073329 0.117333
0.041154 0.073256 0.117333
0.077345 0.071662 0.117333
0.135995 0.073256 0.118234
0.202115 0.073356 0.114719
0.270966 0.073356 0.114827
0.341521 0.073356 0.113826
0.414386 0.073356 0.113041
0.489639 0.073356 0.112509
0.564804 0.073356 0.111872
0.643357 0.073356 0.111616
0.715575 0.073356 0.110975
0.794870 0.073356 0.110355
0.870944 0.073356 0.109377
0.944342 0.073356 0.108582
1.007530 0.073356 0.106717
0.035348 0.129909 0.117544
0.041200 0.129939 0.117543
0.077345 0.129909 0.117544
0.136063 0.129939 0.117543
0.202115 0.129596 0.117859
0.270966 0.130691 0.117978
0.341521 0.130501 0.117859
0.414386 0.130691 0.117978
0.489639 0.130847 0.118077
0.564804 0.131029 0.118150
0.643357 0.131753 0.118077
0.715575 0.131029 0.119052
0.794870 0.131018 0.118699
0.870944 0.131296 0.118861
0.944343 0.131941 0.118699
1.007530 0.132204 0.118861
0.035348 0.194024 0.116101
0.041200 0.194024 0.116120
0.077345 0.194024 0.116101
0.136063 0.194024 0.117019
0.202115 0.194736 0.118234
0.270966 0.191983 0.117333
0.341521 0.190875 0.117333
0.414386 0.190029 0.117333
0.489639 0.189542 0.117333
0.564804 0.188918 0.117333
0.643357 0.187614 0.117333
0.715575 0.188918 0.117333
0.794870 0.187162 0.117333
0.870944 0.185831 0.117333
0.944343 0.185240 0.117333
1.007530 0.182930 0.117333
0.035348 0.261469 0.114215
0.041200 0.261469 0.114335
0.077345 0.261469 0.113324
0.136063 0.261469 0.117029
0.199265 0.260704 0.118234
0.271984 0.261914 0.117333
0.341611 0.258674 0.117333
0.414386 0.256851 0.117333
0.489639 0.255887 0.117333
0.564804 0.254523 0.117333
0.643357 0.252858 0.117333
0.715575 0.250497 0.117333
0.794870 0.251142 0.117333
0.870944 0.248689 0.117333
0.944343 0.247118 0.117333
1.007530 0.242662 0.117333
0.035348 0.331311 0.112488
0.041200 0.331311 0.112678
0.077345 0.331311 0.112488
0.136063 0.331311 0.118048
0.198699 0.330810 0.118234
0.269046 0.331755 0.117333
0.342046 0.331857 0.117333
0.414485 0.328591 0.117333
0.489639 0.326897 0.117333
0.564804 0.324876 0.117333
0.643357 0.323763 0.117333
0.715575 0.320699 0.117333
0.794870 0.320332 0.117333
0.870944 0.317785 0.117333
0.944343 0.314060 0.117333
1.007530 0.307361 0.117333
0.035348 0.403921 0.111197
0.041200 0.403921 0.111428
0.077345 0.403921 0.112089
0.136981 0.403921 0.117697
0.197633 0.404033 0.117333
0.267415 0.403359 0.117333
