MyTube/Resources/LUTs/vintage.cube
LUT_3D_SIZE 6
0.035348 0.032968 0.029328
0.136063 0.032399 0.029328
0.341521 0.033061 0.029328
0.564804 0.033109 0.029328
0.794870 0.033231 0.029328
1.007530 0.033269 0.029328
0.035331 0.129903 0.029328
0.136167 0.130816 0.029328
0.341521 0.124262 0.029328
0.564804 0.120933 0.029328
0.794870 0.117378 0.029328
1.007530 0.112387 0.029328
0.035435 0.331311 0.029328
0.131018 0.331311 0.029328
0.342389 0.332148 0.029328
0.564804 0.321891 0.029328
0.794870 0.314826 0.029328
1.007530 0.298976 0.029328
0.035513 0.556071 0.029328
0.128036 0.556071 0.029328
0.332159 0.556071 0.029328
0.565854 0.556905 0.029328
0.794870 0.542763 0.029328
1.007530 0.517170 0.029328
0.035583 0.790185 0.029328
0.123288 0.790185 0.029328
0.324056 0.790185 0.029328
0.551531 0.790185 0.029328
0.797263 0.792076 0.029328
1.007530 0.753919 0.029328
0.035590 1.074015 0.028017
0.113888 1.074015 0.028017
0.303330 1.074015 0.028098
0.520430 1.074015 0.028138
0.752334 1.074008 0.028240
1.008721 1.075718 0.028277
0.035337 -0.469994 0.125376
0.138011 -0.469991 0.125105
0.346191 -0.469989 0.119016
0.570540 -0.469989 0.115470
0.799979 -0.469989 0.112283
1.008115 -0.469989 0.106484
0.035348 0.129909 0.117544
0.136063 0.129939 0.117543
0.341521 0.130501 0.117859
0.564804 0.131029 0.118150
0.794870 0.131018 0.118699
1.007530 0.132204 0.118861
0.035348 0.331311 0.112488
0.136063 0.331311 0.118048
0.342046 0.331857 0.117333
0.564804 0.324876 0.117333
0.794870 0.320332 0.117333
1.007530 0.307361 0.117333
0.035348 0.556071 0.109351
0.136981 0.556071 0.118626
0.335159 0.556071 0.117333
0.565777 0.556748 0.117333
0.794870 0.545712 0.117333
1.007530 0.521476 0.117333
0.035348 0.790185 0.106523
0.136981 0.790185 0.117570
0.329287 0.790185 0.117333
0.553594 0.790185 0.117333
0.797263 0.794332 0.117333
1.007530 0.755574 0.117333
0.035349 1.074015 0.085374
0.137893 1.074015 0.106482
0.313287 1.074015 0.106913
0.525241 1.074015 0.108024
0.754207 1.074030 0.108980
1.008691 1.075673 0.110379
0.035398 -0.469971 0.310542
0.130769 -0.469992 0.309331
0.343438 -0.469989 0.307642
0.569001 -0.469989 0.297792
0.799676 -0.469989 0.289691
1.008082 -0.469989 0.274249
0.035348 0.124346 0.297525
0.136981 0.130870 0.297525
0.341809 0.129903 0.297994
0.564804 0.129903 0.291945
0.794870 0.129903 0.287952
1.007530 0.129903 0.275685
0.035348 0.331854 0.298074
0.136063 0.330768 0.298090
0.341521 0.331311 0.297605
0.564804 0.331481 0.297796
0.794870 0.332581 0.297510
1.007530 0.332858 0.298793
0.035348 0.556071 0.289318
0.136063 0.556071 0.290443
0.341731 0.556071 0.297822
0.565273 0.556422 0.297525
0.794870 0.548608 0.297525
1.007530 0.533997 0.297525
0.035348 0.790185 0.282070
0.136063 0.790185 0.285296
0.342240 0.790185 0.298166
0.558207 0.790185 0.297525
0.796055 0.792337 0.297525
1.007530 0.761084 0.297525
0.035376 1.074015 0.249594
0.137252 1.074015 0.258082
0.343280 1.074015 0.286046
0.539800 1.074015 0.286323
0.762164 1.074019 0.288854
1.008593 1.075528 0.290767
0.035434 -0.469955 0.516375
0.126592 -0.469995 0.516392
0.330573 -0.469989 0.513838
0.566698 -0.469989 0.512377
0.798127 -0.469989 0.497301
1.008013 -0.469989 0.472130
0.035348 0.120910 0.500903
0.136981 0.131261 0.500903
0.335078 0.129903 0.500903
0.565414 0.129903 0.501446
0.794870 0.129903 0.491393
1.007530 0.129903 0.469494
0.035348 0.321973 0.500903
0.136063 0.324108 0.500903
0.341877 0.331640 0.500903
0.565135 0.331311 0.501199
0.794870 0.331311 0.494561
1.007530 0.331311 0.480881
0.035348 0.556665 0.501595
0.136063 0.556663 0.501593
0.341521 0.556312 0.501210
0.564804 0.556039 0.500929
0.794870 0.555870 0.501722
1.007530 0.557396 0.501998
0.035348 0.790185 0.488645
0.136063 0.790185 0.489903
0.341521 0.790185 0.494837
0.565269 0.790186 0.501147
0.796055 0.792159 0.500903
1.007530 0.770989 0.500903
0.035400 1.074015 0.446016
0.136500 1.074015 0.449562
0.343465 1.074015 0.464194
0.566538 1.074015 0.488809
0.771515 1.074012 0.488995
1.008434 1.075277 0.493753
0.035464 -0.469942 0.728259
0.121555 -0.469990 0.727037
0.320996 -0.469989 0.726991
0.549150 -0.469989 0.725215
0.796261 -0.469989 0.724619
1.007885 -0.469989 0.687433
0.035348 0.117880 0.712096
0.137900 0.130992 0.712096
0.329114 0.129903 0.712096
0.553396 0.129903 0.712096
0.796055 0.129903 0.714457
1.007530 0.129903 0.681530
0.035348 0.313887 0.712096
0.136063 0.318290 0.712096
0.342544 0.332281 0.712096
0.558172 0.331311 0.712096
0.796055 0.331311 0.713534
1.007530 0.331311 0.686356
0.035348 0.542165 0.712096
0.136063 0.543384 0.712096
0.341521 0.548973 0.712096
0.565543 0.556539 0.712096
0.794870 0.556071 0.713792
1.007530 0.556071 0.695053
0.035348 0.791059 0.713199
0.136063 0.791057 0.713196
0.341521 0.790711 0.713002
0.564804 0.790400 0.712701
0.793603 0.790688 0.712653
1.007530 0.791358 0.713040
0.035414 1.074015 0.661866
0.137602 1.074015 0.662971
0.344905 1.074015 0.669443
0.567894 1.074015 0.679698
0.793854 1.074038 0.700545
1.008104 1.074834 0.703572
0.035519 -0.469920 1.020384
0.114591 -0.469991 1.020272
0.304413 -0.469989 1.020174
0.522369 -0.469989 1.019922
0.755785 -0.469989 1.019305
1.009310 -0.469989 1.018501
0.035348 0.112691 1.000016
0.138821 0.132396 1.000016
0.318091 0.129903 1.000016
0.532561 0.129903 1.000016
0.761259 0.129903 1.000016
1.009842 0.129903 1.000016
0.035348 0.300098 1.000016
0.136063 0.308672 1.000016
0.343869 0.333593 1.000016
0.544546 0.331311 1.000016
0.767767 0.331311 1.000016
1.009655 0.331311 1.000016
0.035348 0.519132 1.000016
0.136063 0.522766 1.000016
0.341521 0.535050 1.000016
0.567022 0.558193 1.000016
0.776238 0.556071 1.000016
1.009322 0.556071 1.000016
0.035348 0.756747 1.000016
0.136063 0.756691 1.000016
0.341521 0.763486 1.000016
0.564804 0.772350 1.000016
0.794455 0.791393 1.000016
1.008644 0.790185 1.000016
0.035348 1.009777 1.000016
0.136063 1.009638 1.000016
0.341521 1.009511 1.000016
0.564804 1.009172 1.000016
0.794870 1.008379 1.000016
1.007530 1.007325 1.000016
