MyTube/Resources/LUTs/white_black.cube
LUT_3D_SIZE 16
0.018594 0.018594 0.018594
0.027766 0.027766 0.027766
0.058717 0.058717 0.058717
0.105934 0.105934 0.105934
0.145808 0.145808 0.145808
0.179865 0.179865 0.179865
0.244007 0.244007 0.244007
0.308539 0.308539 0.308539
0.370807 0.370807 0.370807
0.429692 0.429692 0.429692
0.485692 0.485691 0.485691
0.540346 0.540346 0.540346
0.589993 0.589993 0.589993
0.631898 0.631898 0.631898
0.654124 0.654124 0.654124
0.670089 0.670089 0.670089
0.027285 0.027285 0.027285
0.027081 0.027081 0.027081
0.058171 0.058171 0.058171
0.105880 0.105880 0.105880
0.147799 0.147799 0.147799
0.182548 0.182548 0.182548
0.245826 0.245826 0.245826
0.310009 0.310009 0.310009
0.372006 0.372006 0.372006
0.430748 0.430748 0.430748
0.486851 0.486851 0.486851
0.541392 0.541392 0.541392
0.590538 0.590538 0.590538
0.632414 0.632414 0.632414
0.654653 0.654653 0.654653
0.670613 0.670613 0.670613
0.058632 0.058632 0.058632
0.058577 0.058577 0.058577
0.057780 0.057780 0.057780
0.109935 0.109935 0.109935
0.154913 0.154913 0.154913
0.191458 0.191458 0.191458
0.253365 0.253365 0.253365
0.316248 0.316248 0.316248
0.377274 0.377274 0.377274
0.435208 0.435208 0.435208
0.490990 0.490990 0.490990
0.543950 0.543950 0.543950
0.593645 0.593645 0.593645
0.635531 0.635531 0.635531
0.656867 0.656867 0.656867
0.672779 0.672779 0.672779
0.111242 0.111242 0.111242
0.111420 0.111420 0.111420
0.112323 0.112323 0.112323
0.114683 0.114683 0.114683
0.167377 0.167377 0.167377
0.209767 0.209767 0.209767
0.267810 0.267810 0.267810
0.328340 0.328340 0.328340
0.387500 0.387500 0.387500
0.444021 0.444021 0.444021
0.498131 0.498131 0.498131
0.550685 0.550685 0.550685
0.599253 0.599253 0.599253
0.640066 0.640066 0.640066
0.661565 0.661565 0.661565
0.677357 0.677357 0.677357
0.175689 0.175689 0.175689
0.176110 0.176110 0.176110
0.177814 0.177814 0.177814
0.181417 0.181417 0.181417
0.186935 0.186935 0.186935
0.234373 0.234373 0.234373
0.288882 0.288882 0.288882
0.346507 0.346507 0.346507
0.403172 0.403172 0.403172
0.457613 0.457613 0.457613
0.510509 0.510509 0.510509
0.561148 0.561148 0.561148
0.607614 0.607614 0.607614
0.647987 0.647987 0.647987
0.668898 0.668898 0.668898
0.684381 0.684381 0.684381
0.243128 0.243128 0.243128
0.243584 0.243584 0.243584
0.245135 0.245135 0.245135
0.249600 0.249600 0.249600
0.255910 0.255910 0.255910
0.264441 0.264441 0.264441
0.315520 0.315520 0.315520
0.370064 0.370064 0.370064
0.423944 0.423944 0.423944
0.475883 0.475883 0.475883
0.526070 0.526070 0.526070
0.576246 0.576246 0.576246
0.620529 0.620529 0.620529
0.658798 0.658798 0.658798
0.679077 0.679077 0.679077
0.694272 0.694272 0.694272
0.320801 0.320801 0.320801
0.321153 0.321153 0.321153
0.322694 0.322694 0.322694
0.325938 0.325938 0.325938
0.331244 0.331244 0.331244
0.337347 0.337347 0.337347
0.346427 0.346427 0.346427
0.398161 0.398161 0.398161
0.449237 0.449237 0.449237
0.498528 0.498528 0.498528
0.546136 0.546136 0.546136
0.592987 0.592987 0.592987
0.637245 0.637245 0.637245
0.673228 0.673228 0.673228
0.692144 0.692144 0.692144
0.706853 0.706853 0.706853
0.399451 0.399451 0.399451
0.399809 0.399809 0.399809
0.401313 0.401313 0.401313
0.404415 0.404415 0.404415
0.408012 0.408012 0.408012
0.413410 0.413410 0.413410
0.420833 0.420833 0.420833
0.429855 0.429855 0.429855
0.478382 0.478382 0.478382
0.524950 0.524950 0.524950
0.569978 0.569978 0.569978
0.616100 0.616100 0.616100
0.656850 0.656850 0.656850
0.691340 0.691340 0.691340
0.708259 0.708259 0.708259
0.722326 0.722326 0.722326
0.475500 0.475500 0.475500
0.475742 0.475742 0.475742
0.476408 0.476408 0.476408
0.479315 0.479315 0.479315
0.482819 0.482819 0.482819
0.487096 0.487096 0.487096
0.493511 0.493511 0.493511
0.501342 0.501342 0.501342
0.510532 0.510532 0.510532
0.554671 0.554671 0.554671
0.597749 0.597749 0.597749
0.640766 0.640766 0.640766
0.679232 0.679232 0.679232
0.712092 0.712092 0.712092
0.726968 0.726968 0.726968
0.740387 0.740387 0.740387
0.547560 0.547560 0.547560
0.547762 0.547762 0.547762
0.549280 0.549280 0.549280
0.551303 0.551303 0.551303
0.553374 0.553374 0.553374
0.557473 0.557473 0.557473
0.562989 0.562989 0.562989
0.569668 0.569668 0.569668
0.577678 0.577678 0.577678
0.586983 0.586983 0.586983
0.627544 0.627544 0.627544
0.668126 0.668126 0.668126
0.704211 0.704211 0.704211
0.735535 0.735535 0.735535
0.748303 0.748303 0.748303
0.761160 0.761160 0.761160
0.616351 0.616351 0.616351
0.616506 0.616506 0.616506
0.617211 0.617211 0.617211
0.619092 0.619092 0.619092
0.622032 0.622032 0.622032
0.625255 0.625255 0.625255
0.629706 0.629706 0.629706
0.635524 0.635524 0.635524
0.642489 0.642489 0.642489
0.650640 0.650640 0.650640
0.660350 0.660350 0.660350
0.697876 0.697876 0.697876
0.733225 0.733225 0.733225
0.760450 0.760450 0.760450
0.772120 0.772120 0.772120
0.784302 0.784302 0.784302
0.682215 0.682215 0.682215
0.682346 0.682346 0.682346
0.683073 0.683073 0.683073
0.684102 0.684102 0.684102
0.687054 0.687054 0.687054
0.689738 0.689738 0.689738
0.693819 0.693819 0.693819
0.698997 0.698997 0.698997
0.705119 0.705119 0.705119
0.712221 0.712221 0.712221
0.720143 0.720143 0.720143
0.730567 0.730567 0.730567
0.762590 0.762590 0.762590
0.788292 0.788292 0.788292
0.797987 0.797987 0.797987
0.809528 0.809528 0.809528
0.743384 0.743384 0.743384
0.743420 0.743420 0.743420
0.743384 0.743384 0.743384
0.745244 0.745244 0.745244
0.746946 0.746946 0.746946
0.750613 0.750613 0.750613
0.753582 0.753582 0.753582
0.758077 0.758077 0.758077
0.763514 0.763514 0.763514
0.769853 0.769853 0.769853
0.777547 0.777547 0.777547
0.785531 0.785531 0.785531
0.794715 0.794715 0.794715
0.818802 0.818802 0.818802
0.825758 0.825758 0.825758
0.836669 0.836669 0.836669
0.794970 0.794970 0.794970
0.795099 0.795099 0.795099
0.795805 0.795805 0.795805
0.796791 0.796791 0.796791
0.798238 0.798238 0.798238
0.800606 0.800606 0.800606
0.804027 0.804027 0.804027
0.807971 0.807971 0.807971
0.812733 0.812733 0.812733
0.818412 0.818412 0.818412
0.824976 0.824976 0.824976
0.832258 0.832258 0.832258
0.840717 0.840717 0.840717
0.849352 0.849352 0.849352
0.855338 0.855338 0.855338
0.865548 0.865548 0.865548
0.828265 0.828265 0.828265
0.828301 0.828301 0.828301
0.829057 0.829057 0.829057
0.829962 0.829962 0.829962
0.831288 0.831288 0.831288
0.833225 0.833225 0.833225
0.836169 0.836169 0.836169
0.839732 0.839732 0.839732
0.844008 0.844008 0.844008
0.849082 0.849082 0.849082
0.855378 0.855378 0.855378
0.861952 0.861952 0.861952
0.869251 0.869251 0.869251
0.877357 0.877357 0.877357
0.886220 0.886220 0.886220
0.898221 0.898221 0.898221
0.864062 0.864062 0.864062
0.864237 0.864237 0.864237
0.864895 0.864895 0.864895
0.865842 0.865842 0.865842
0.867536 0.867536 0.867536
0.869212 0.869212 0.869212
0.871550 0.871550 0.871550
0.874874 0.874874 0.874874
0.878836 0.878836 0.878836
0.883518 0.883518 0.883518
0.888498 0.888498 0.888498
0.897178 0.897178 0.897178
0.907107 0.907107 0.907107
0.918131 0.918131 0.918131
0.930139 0.930139 0.930139
0.943230 0.943230 0.943230
0.027900 0.027900 0.027900
0.027693 0.027693 0.027693
0.058980 0.058980 0.058980
0.105815 0.105815 0.105815
0.146006 0.146006 0.146006
0.180020 0.180020 0.180020
0.244187 0.244187 0.244187
0.308681 0.308681 0.308681
0.370894 0.370894 0.370894
0.429798 0.429798 0.429798
0.485797 0.485797 0.485797
0.540463 0.540463 0.540463
0.590018 0.590018 0.590018
0.631909 0.631909 0.631909
0.654124 0.654124 0.654124
0.670100 0.670100 0.670100
0.027216 0.027216 0.027216
0.027432 0.027432 0.027432
0.058081 0.058081 0.058081
0.105389 0.105389 0.105389
0.144859 0.144859 0.144859
0.179339 0.179339 0.179339
0.243130 0.243130 0.243130
0.308061 0.308061 0.308061
0.370584 0.370584 0.370584
0.429732 0.429732 0.429732
0.485500 0.485500 0.485500
0.540399 0.540399 0.540399
0.589682 0.589682 0.589682
0.631567 0.631567 0.631567
0.654672 0.654672 0.654672
0.670599 0.670599 0.670599
0.058612 0.058612 0.058612
0.057934 0.057934 0.057934
0.056910 0.056910 0.056910
0.106984 0.106984 0.106984
0.151005 0.151005 0.151005
0.188341 0.188341 0.188341
0.250769 0.250769 0.250769
0.314349 0.314349 0.314349
0.375830 0.375830 0.375830
0.434205 0.434205 0.434205
0.489627 0.489627 0.489627
0.543869 0.543869 0.543869
0.593662 0.593662 0.593662
0.634620 0.634620 0.634620
0.656858 0.656858 0.656858
0.672762 0.672762 0.672762
0.111310 0.111310 0.111310
0.109217 0.109217 0.109217
0.109152 0.109152 0.109152
0.111368 0.111368 0.111368
0.164709 0.164709 0.164709
0.206793 0.206793 0.206793
0.265360 0.265360 0.265360
0.326554 0.326554 0.326554
0.386171 0.386171 0.386171
0.443054 0.443054 0.443054
0.496885 0.496885 0.496885
0.550595 0.550595 0.550595
0.598407 0.598407 0.598407
0.640051 0.640051 0.640051
0.661584 0.661584 0.661584
0.677341 0.677341 0.677341
0.175842 0.175842 0.175842
0.172867 0.172867 0.172867
0.174778 0.174778 0.174778
0.178155 0.178155 0.178155
0.183482 0.183482 0.183482
0.230576 0.230576 0.230576
0.286615 0.286615 0.286615
0.344865 0.344865 0.344865
0.401962 0.401962 0.401962
0.456698 0.456698 0.456698
0.509308 0.509308 0.509308
0.561114 0.561114 0.561114
0.607633 0.607633 0.607633
0.648013 0.648013 0.648013
0.668919 0.668919 0.668919
0.684369 0.684369 0.684369
0.243283 0.243283 0.243283
0.240566 0.240566 0.240566
0.242277 0.242277 0.242277
0.246588 0.246588 0.246588
0.252775 0.252775 0.252775
0.260843 0.260843 0.260843
0.313446 0.313446 0.313446
0.368540 0.368540 0.368540
0.422809 0.422809 0.422809
0.475021 0.475021 0.475021
0.525855 0.525855 0.525855
0.575404 0.575404 0.575404
0.620543 0.620543 0.620543
0.658785 0.658785 0.658785
0.679091 0.679091 0.679091
0.694257 0.694257 0.694257
0.320916 0.320916 0.320916
0.319101 0.319101 0.319101
0.320916 0.320916 0.320916
0.323890 0.323890 0.323890
0.329337 0.329337 0.329337
0.335930 0.335930 0.335930
0.344530 0.344530 0.344530
0.396764 0.396764 0.396764
0.448215 0.448215 0.448215
0.497700 0.497700 0.497700
0.546016 0.546016 0.546016
0.593052 0.593052 0.593052
0.637228 0.637228 0.637228
0.673213 0.673213 0.673213
0.692159 0.692159 0.692159
0.706837 0.706837 0.706837
0.399581 0.399581 0.399581
0.398399 0.398399 0.398399
0.399581 0.399581 0.399581
0.402102 0.402102 0.402102
0.406706 0.406706 0.406706
0.412146 0.412146 0.412146
0.419522 0.419522 0.419522
0.428602 0.428602 0.428602
0.477384 0.477384 0.477384
0.524238 0.524238 0.524238
0.569899 0.569899 0.569899
0.614533 0.614533 0.614533
0.656865 0.656865 0.656865
0.691365 0.691365 0.691365
0.708192 0.708192 0.708192
0.722299 0.722299 0.722299
0.475568 0.475568 0.475568
0.474776 0.474776 0.474776
0.475568 0.475568 0.475568
0.478344 0.478344 0.478344
0.481055 0.481055 0.481055
0.486166 0.486166 0.486166
0.492662 0.492662 0.492662
0.500407 0.500407 0.500407
0.509650 0.509650 0.509650
0.553962 0.553962 0.553962
0.596877 0.596877 0.596877
0.639274 0.639274 0.639274
0.679249 0.679249 0.679249
0.712193 0.712193 0.712193
0.726992 0.726992 0.726992
0.740470 0.740470 0.740470
0.547639 0.547639 0.547639
0.547138 0.547138 0.547138
0.548503 0.548503 0.548503
0.549771 0.549771 0.549771
0.552801 0.552801 0.552801
0.556865 0.556865 0.556865
0.562348 0.562348 0.562348
0.569074 0.569074 0.569074
0.577080 0.577080 0.577080
0.586374 0.586374 0.586374
0.626950 0.626950 0.626950
0.667541 0.667541 0.667541
0.704229 0.704229 0.704229
0.734597 0.734597 0.734597
0.748330 0.748330 0.748330
0.761135 0.761135 0.761135
0.616390 0.616390 0.616390
0.616089 0.616089 0.616089
0.616390 0.616390 0.616390
0.618654 0.618654 0.618654
0.620687 0.620687 0.620687
0.623990 0.623990 0.623990
0.629204 0.629204 0.629204
0.635070 0.635070 0.635070
0.642175 0.642175 0.642175
0.650270 0.650270 0.650270
0.660043 0.660043 0.660043
0.697556 0.697556 0.697556
0.733253 0.733253 0.733253
0.760420 0.760420 0.760420
0.772139 0.772139 0.772139
0.784272 0.784272 0.784272
0.682248 0.682248 0.682248
0.682078 0.682078 0.682078
0.683087 0.683087 0.683087
0.684651 0.684651 0.684651
0.685998 0.685998 0.685998
0.689458 0.689458 0.689458
0.693557 0.693557 0.693557
0.698630 0.698630 0.698630
0.704805 0.704805 0.704805
0.712114 0.712114 0.712114
0.720646 0.720646 0.720646
0.730416 0.730416 0.730416
0.762610 0.762610 0.762610
0.788274 0.788274 0.788274
0.798008 0.798008 0.798008
0.809492 0.809492 0.809492
0.743370 0.743370 0.743370
0.743421 0.743421 0.743421
0.743370 0.743370 0.743370
0.745030 0.745030 0.745030
0.746852 0.746852 0.746852
0.749667 0.749667 0.749667
0.753452 0.753452 0.753452
0.758015 0.758015 0.758015
0.763416 0.763416 0.763416
0.769756 0.769756 0.769756
0.776605 0.776605 0.776605
0.786276 0.786276 0.786276
0.794738 0.794738 0.794738
0.818760 0.818760 0.818760
0.825781 0.825781 0.825781
0.836684 0.836684 0.836684
0.795016 0.795016 0.795016
0.795073 0.795073 0.795073
0.795873 0.795873 0.795873
0.796765 0.796765 0.796765
0.798216 0.798216 0.798216
0.800586 0.800586 0.800586
0.804005 0.804005 0.804005
0.807950 0.807950 0.807950
0.812714 0.812714 0.812714
0.818395 0.818395 0.818395
0.824958 0.824958 0.824958
0.832241 0.832241 0.832241
0.840742 0.840742 0.840742
0.849404 0.849404 0.849404
0.855364 0.855364 0.855364
0.865600 0.865600 0.865600
0.828291 0.828291 0.828291
0.828325 0.828325 0.828325
0.829121 0.829121 0.829121
0.829986 0.829986 0.829986
0.831312 0.831312 0.831312
0.833251 0.833251 0.833251
0.836193 0.836193 0.836193
0.839758 0.839758 0.839758
0.844033 0.844033 0.844033
0.849107 0.849107 0.849107
0.855403 0.855403 0.855403
0.861978 0.861978 0.861978
0.869279 0.869279 0.869279
0.877357 0.877357 0.877357
0.886249 0.886249 0.886249
0.898165 0.898165 0.898165
0.864129 0.864129 0.864129
0.864205 0.864205 0.864205
0.864962 0.864962 0.864962
0.865810 0.865810 0.865810
0.867480 0.867480 0.867480
0.869215 0.869215 0.869215
0.871494 0.871494 0.871494
0.874822 0.874822 0.874822
0.878783 0.878783 0.878783
0.883522 0.883522 0.883522
0.888444 0.888444 0.888444
0.897123 0.897123 0.897123
0.907050 0.907050 0.907050
0.918072 0.918072 0.918072
0.930079 0.930079 0.930079
0.943165 0.943165 0.943165
0.059453 0.059453 0.059453
0.059404 0.059404 0.059404
0.059453 0.059453 0.059453
0.106681 0.106681 0.106681
0.146848 0.146848 0.146848
0.181789 0.181789 0.181789
0.244953 0.244953 0.244953
0.309336 0.309336 0.309336
0.371414 0.371414 0.371414
0.430239 0.430239 0.430239
0.486308 0.486308 0.486308
0.540017 0.540017 0.540017
0.590243 0.590243 0.590243
0.632237 0.632237 0.632237
0.654349 0.654349 0.654349
0.670430 0.670430 0.670430
0.059278 0.059278 0.059278
0.058990 0.058990 0.058990
0.059278 0.059278 0.059278
0.105101 0.105101 0.105101
0.145708 0.145708 0.145708
0.179019 0.179019 0.179019
0.243911 0.243911 0.243911
0.308718 0.308718 0.308718
0.371132 0.371132 0.371132
0.430174 0.430174 0.430174
0.486010 0.486010 0.486010
0.539981 0.539981 0.539981
0.590808 0.590808 0.590808
0.632612 0.632612 0.632612
0.654950 0.654950 0.654950
0.670806 0.670806 0.670806
0.058541 0.058541 0.058541
0.057807 0.057807 0.057807
0.060261 0.060261 0.060261
0.102593 0.102593 0.102593
0.139364 0.139364 0.139364
0.172720 0.172720 0.172720
0.239123 0.239123 0.239123
0.305884 0.305884 0.305884
0.369735 0.369735 0.369735
0.429934 0.429934 0.429934
0.487370 0.487370 0.487370
0.542369 0.542369 0.542369
0.592477 0.592477 0.592477
0.634995 0.634995 0.634995
0.657458 0.657458 0.657458
0.673216 0.673216 0.673216
0.111560 0.111560 0.111560
0.109452 0.109452 0.109452
0.103029 0.103029 0.103029
0.104125 0.104125 0.104125
0.151533 0.151533 0.151533
0.190724 0.190724 0.190724
0.254245 0.254245 0.254245
0.318462 0.318462 0.318462
0.380345 0.380345 0.380345
0.438918 0.438918 0.438918
0.494825 0.494825 0.494825
0.549268 0.549268 0.549268
0.598103 0.598103 0.598103
0.640410 0.640410 0.640410
0.662136 0.662136 0.662136
0.677691 0.677691 0.677691
0.176429 0.176429 0.176429
0.173439 0.173439 0.173439
0.161441 0.161441 0.161441
0.163829 0.163829 0.163829
0.168921 0.168921 0.168921
0.217211 0.217211 0.217211
0.276130 0.276130 0.276130
0.337153 0.337153 0.337153
0.396310 0.396310 0.396310
0.452704 0.452704 0.452704
0.506564 0.506564 0.506564
0.559903 0.559903 0.559903
0.607277 0.607277 0.607277
0.648360 0.648360 0.648360
0.669448 0.669448 0.669448
0.684684 0.684684 0.684684
0.243980 0.243980 0.243980
0.241253 0.241253 0.241253
0.228850 0.228850 0.228850
0.232186 0.232186 0.232186
0.239486 0.239486 0.239486
0.247201 0.247201 0.247201
0.303552 0.303552 0.303552
0.361336 0.361336 0.361336
0.417527 0.417527 0.417527
0.471238 0.471238 0.471238
0.522489 0.522489 0.522489
0.573479 0.573479 0.573479
0.620137 0.620137 0.620137
0.659080 0.659080 0.659080
0.679595 0.679595 0.679595
0.694539 0.694539 0.694539
0.321455 0.321455 0.321455
0.319656 0.319656 0.319656
0.310910 0.310910 0.310910
0.313882 0.313882 0.313882
0.319870 0.319870 0.319870
0.326073 0.326073 0.326073
0.335137 0.335137 0.335137
0.389971 0.389971 0.389971
0.443224 0.443224 0.443224
0.494150 0.494150 0.494150
0.542884 0.542884 0.542884
0.591312 0.591312 0.591312
0.635951 0.635951 0.635951
0.674358 0.674358 0.674358
0.692648 0.692648 0.692648
0.707123 0.707123 0.707123
0.400029 0.400029 0.400029
0.398799 0.398799 0.398799
0.392628 0.392628 0.392628
0.396062 0.396062 0.396062
0.399244 0.399244 0.399244
0.405723 0.405723 0.405723
0.413069 0.413069 0.413069
0.422222 0.422222 0.422222
0.472762 0.472762 0.472762
0.520860 0.520860 0.520860
0.567113 0.567113 0.567113
0.613836 0.613836 0.613836
0.655605 0.655605 0.655605
0.691572 0.691572 0.691572
0.708676 0.708676 0.708676
0.722458 0.722458 0.722458
0.475947 0.475947 0.475947
0.475155 0.475155 0.475155
0.471480 0.471480 0.471480
0.473373 0.473373 0.473373
0.476538 0.476538 0.476538
0.481715 0.481715 0.481715
0.488119 0.488119 0.488119
0.495963 0.495963 0.495963
0.505318 0.505318 0.505318
0.550806 0.550806 0.550806
0.595269 0.595269 0.595269
0.638752 0.638752 0.638752
0.678733 0.678733 0.678733
0.712386 0.712386 0.712386
0.727382 0.727382 0.727382
0.740674 0.740674 0.740674
0.547955 0.547955 0.547955
0.547397 0.547397 0.547397
0.544443 0.544443 0.544443
0.546582 0.546582 0.546582
0.549673 0.549673 0.549673
0.553775 0.553775 0.553775
0.559265 0.559265 0.559265
0.565990 0.565990 0.565990
0.574091 0.574091 0.574091
0.583447 0.583447 0.583447
0.624863 0.624863 0.624863
0.666337 0.666337 0.666337
0.704538 0.704538 0.704538
0.735699 0.735699 0.735699
0.748715 0.748715 0.748715
0.761328 0.761328 0.761328
0.616702 0.616702 0.616702
0.616364 0.616364 0.616364
0.614974 0.614974 0.614974
0.616364 0.616364 0.616364
0.619520 0.619520 0.619520
0.622800 0.622800 0.622800
0.627190 0.627190 0.627190
0.633043 0.633043 0.633043
0.640106 0.640106 0.640106
0.648375 0.648375 0.648375
0.657087 0.657087 0.657087
0.697244 0.697244 0.697244
0.731762 0.731762 0.731762
0.761267 0.761267 0.761267
0.772305 0.772305 0.772305
0.784383 0.784383 0.784383
0.682594 0.682594 0.682594
0.682343 0.682343 0.682343
0.681658 0.681658 0.681658
0.682343 0.682343 0.682343
0.685711 0.685711 0.685711
0.688290 0.688290 0.688290
0.692379 0.692379 0.692379
0.697516 0.697516 0.697516
0.703613 0.703613 0.703613
0.710963 0.710963 0.710963
0.719433 0.719433 0.719433
0.728471 0.728471 0.728471
0.762041 0.762041 0.762041
0.788353 0.788353 0.788353
0.798181 0.798181 0.798181
0.809590 0.809590 0.809590
0.743566 0.743566 0.743566
0.743595 0.743595 0.743595
0.743566 0.743566 0.743566
0.744429 0.744429 0.744429
0.747143 0.747143 0.747143
0.749242 0.749242 0.749242
0.752979 0.752979 0.752979
0.757483 0.757483 0.757483
0.762859 0.762859 0.762859
0.769255 0.769255 0.769255
0.776926 0.776926 0.776926
0.784965 0.784965 0.784965
0.794093 0.794093 0.794093
0.818766 0.818766 0.818766
0.825960 0.825960 0.825960
0.836690 0.836690 0.836690
0.795204 0.795204 0.795204
0.795310 0.795310 0.795310
0.796039 0.796039 0.796039
0.796145 0.796145 0.796145
0.798244 0.798244 0.798244
0.800610 0.800610 0.800610
0.804033 0.804033 0.804033
0.807975 0.807975 0.807975
0.812734 0.812734 0.812734
0.818409 0.818409 0.818409
0.824977 0.824977 0.824977
0.832255 0.832255 0.832255
0.840822 0.840822 0.840822
0.849370 0.849370 0.849370
0.855436 0.855436 0.855436
0.865502 0.865502 0.865502
0.828451 0.828451 0.828451
0.828562 0.828562 0.828562
0.829281 0.829281 0.829281
0.830149 0.830149 0.830149
0.831535 0.831535 0.831535
0.833463 0.833463 0.833463
0.836457 0.836457 0.836457
0.839968 0.839968 0.839968
0.844194 0.844194 0.844194
0.849272 0.849272 0.849272
0.855511 0.855511 0.855511
0.861381 0.861381 0.861381
0.868533 0.868533 0.868533
0.877357 0.877357 0.877357
0.886334 0.886334 0.886334
0.898014 0.898014 0.898014
0.864227 0.864227 0.864227
0.864303 0.864303 0.864303
0.865060 0.865060 0.865060
0.865968 0.865968 0.865968
0.867411 0.867411 0.867411
0.869083 0.869083 0.869083
0.871501 0.871501 0.871501
0.874689 0.874689 0.874689
0.878747 0.878747 0.878747
0.883428 0.883428 0.883428
0.888409 0.888409 0.888409
0.896972 0.896972 0.896972
0.906947 0.906947 0.906947
0.917879 0.917879 0.917879
0.929861 0.929861 0.929861
0.942991 0.942991 0.942991
0.103471 0.103471 0.103471
0.103674 0.103674 0.103674
0.104526 0.104526 0.104526
0.105785 0.105785 0.105785
0.148605 0.148605 0.148605
0.183209 0.183209 0.183209
0.246560 0.246560 0.246560
0.310608 0.310608 0.310608
0.372507 0.372507 0.372507
0.431192 0.431192 0.431192
0.487323 0.487323 0.487323
0.540942 0.540942 0.540942
0.590748 0.590748 0.590748
0.632605 0.632605 0.632605
0.654839 0.654839 0.654839
0.670798 0.670798 0.670798
0.104106 0.104106 0.104106
0.102811 0.102811 0.102811
0.103053 0.103053 0.103053
0.104911 0.104911 0.104911
0.147445 0.147445 0.147445
0.181498 0.181498 0.181498
0.245504 0.245504 0.245504
0.310021 0.310021 0.310021
0.372265 0.372265 0.372265
0.431097 0.431097 0.431097
0.487074 0.487074 0.487074
0.540829 0.540829 0.540829
0.590421 0.590421 0.590421
0.633148 0.633148 0.633148
0.655419 0.655419 0.655419
0.671325 0.671325 0.671325
0.106778 0.106778 0.106778
0.105181 0.105181 0.105181
0.101499 0.101499 0.101499
0.103072 0.103072 0.103072
0.139996 0.139996 0.139996
0.174140 0.174140 0.174140
0.240703 0.240703 0.240703
0.307184 0.307184 0.307184
0.370874 0.370874 0.370874
0.430870 0.430870 0.430870
0.488462 0.488462 0.488462
0.543228 0.543228 0.543228
0.592970 0.592970 0.592970
0.635537 0.635537 0.635537
0.657895 0.657895 0.657895
0.673685 0.673685 0.673685
0.112101 0.112101 0.112101
0.109926 0.109926 0.109926
0.104607 0.104607 0.104607
0.118658 0.118658 0.118658
0.141784 0.141784 0.141784
0.165931 0.165931 0.165931
0.232247 0.232247 0.232247
0.301698 0.301698 0.301698
0.368279 0.368279 0.368279
0.430747 0.430747 0.430747
0.490446 0.490446 0.490446
0.546646 0.546646 0.546646
0.598940 0.598940 0.598940
0.641837 0.641837 0.641837
0.664609 0.664609 0.664609
0.679962 0.679962 0.679962
0.177605 0.177605 0.177605
0.174611 0.174611 0.174611
0.162661 0.162661 0.162661
0.146578 0.146578 0.146578
0.150595 0.150595 0.150595
0.190126 0.190126 0.190126
0.254384 0.254384 0.254384
0.320804 0.320804 0.320804
0.384545 0.384545 0.384545
0.444647 0.444647 0.444647
0.501496 0.501496 0.501496
0.556547 0.556547 0.556547
0.607178 0.607178 0.607178
0.649611 0.649611 0.649611
0.671892 0.671892 0.671892
0.686786 0.686786 0.686786
0.245317 0.245317 0.245317
0.242633 0.242633 0.242633
0.230194 0.230194 0.230194
0.203909 0.203909 0.203909
0.210714 0.210714 0.210714
0.217885 0.217885 0.217885
0.281896 0.281896 0.281896
0.345346 0.345346 0.345346
0.406000 0.406000 0.406000
0.463354 0.463354 0.463354
0.518527 0.518527 0.518527
0.571925 0.571925 0.571925
0.619912 0.619912 0.619912
0.661080 0.661080 0.661080
0.681883 0.681883 0.681883
0.696431 0.696431 0.696431
0.322531 0.322531 0.322531
0.320737 0.320737 0.320737
0.311985 0.311985 0.311985
0.292727 0.292727 0.292727
0.296911 0.296911 0.296911
0.304154 0.304154 0.304154
0.313323 0.313323 0.313323
0.374395 0.374395 0.374395
0.432012 0.432012 0.432012
0.486418 0.486418 0.486418
0.538257 0.538257 0.538257
0.589867 0.589867 0.589867
0.636416 0.636416 0.636416
0.675411 0.675411 0.675411
0.694744 0.694744 0.694744
0.708928 0.708928 0.708928
0.400914 0.400914 0.400914
0.399733 0.399733 0.399733
0.393508 0.393508 0.393508
0.380258 0.380258 0.380258
0.384607 0.384607 0.384607
0.390204 0.390204 0.390204
0.397588 0.397588 0.397588
0.406809 0.406809 0.406809
