MyTube/Resources/LUTs/white_black.cube
LUT_3D_SIZE 6
0.018594 0.018594 0.018594
0.105934 0.105934 0.105934
0.244007 0.244007 0.244007
0.429692 0.429692 0.429692
0.589993 0.589993 0.589993
0.670089 0.670089 0.670089
0.111242 0.111242 0.111242
0.114683 0.114683 0.114683
0.267810 0.267810 0.267810
0.444021 0.444021 0.444021
0.599253 0.599253 0.599253
0.677357 0.677357 0.677357
0.320801 0.320801 0.320801
0.325938 0.325938 0.325938
0.346427 0.346427 0.346427
0.498528 0.498528 0.498528
0.637245 0.637245 0.637245
0.706853 0.706853 0.706853
0.547560 0.547560 0.547560
0.551303 0.551303 0.551303
0.562989 0.562989 0.562989
0.586983 0.586983 0.586983
0.704211 0.704211 0.704211
0.761160 0.761160 0.761160
0.743384 0.743384 0.743384
0.745244 0.745244 0.745244
0.753582 0.753582 0.753582
0.769853 0.769853 0.769853
0.794715 0.794715 0.794715
0.836669 0.836669 0.836669
0.864062 0.864062 0.864062
0.865842 0.865842 0.865842
0.871550 0.871550 0.871550
0.883518 0.883518 0.883518
0.907107 0.907107 0.907107
0.943230 0.943230 0.943230
0.103471 0.103471 0.103471
0.105785 0.105785 0.105785
0.246560 0.246560 0.246560
0.431192 0.431192 0.431192
0.590748 0.590748 0.590748
0.670798 0.670798 0.670798
0.112101 0.112101 0.112101
0.118658 0.118658 0.118658
0.232247 0.232247 0.232247
0.430747 0.430747 0.430747
0.598940 0.598940 0.598940
0.679962 0.679962 0.679962
0.322531 0.322531 0.322531
0.292727 0.292727 0.292727
0.313323 0.313323 0.313323
0.486418 0.486418 0.486418
0.636416 0.636416 0.636416
0.708928 0.708928 0.708928
0.548604 0.548604 0.548604
0.539295 0.539295 0.539295
0.551768 0.551768 0.551768
0.576042 0.576042 0.576042
0.703490 0.703490 0.703490
0.762478 0.762478 0.762478
0.744020 0.744020 0.744020
0.744030 0.744030 0.744030
0.751935 0.751935 0.751935
0.768230 0.768230 0.768230
0.793104 0.793104 0.793104
0.837085 0.837085 0.837085
0.864547 0.864547 0.864547
0.865435 0.865435 0.865435
0.871468 0.871468 0.871468
0.883318 0.883318 0.883318
0.906591 0.906591 0.906591
0.942379 0.942379 0.942379
0.215461 0.215461 0.215461
0.224289 0.224289 0.224289
0.257067 0.257067 0.257067
0.437409 0.437409 0.437409
0.594952 0.594952 0.594952
0.673985 0.673985 0.673985
0.243085 0.243085 0.243085
0.210206 0.210206 0.210206
0.242192 0.242192 0.242192
0.436858 0.436858 0.436858
0.602179 0.602179 0.602179
0.682942 0.682942 0.682942
0.329810 0.329810 0.329810
0.299237 0.299237 0.299237
0.356889 0.356889 0.356889
0.456225 0.456225 0.456225
0.653575 0.653575 0.653575
0.741729 0.741729 0.741729
0.552867 0.552867 0.552867
0.543607 0.543607 0.543607
0.502483 0.502483 0.502483
0.520140 0.520140 0.520140
0.706863 0.706863 0.706863
0.784666 0.784666 0.784666
0.746816 0.746816 0.746816
0.745964 0.745964 0.745964
0.747647 0.747647 0.747647
0.761283 0.761283 0.761283
0.782323 0.782323 0.782323
0.846019 0.846019 0.846019
0.866697 0.866697 0.866697
0.867481 0.867481 0.867481
0.875009 0.875009 0.875009
0.885055 0.885055 0.885055
0.905014 0.905014 0.905014
0.935598 0.935598 0.935598
0.386063 0.386063 0.386063
0.391068 0.391068 0.391068
0.411866 0.411866 0.411866
0.449692 0.449692 0.449692
0.602404 0.602404 0.602404
0.680224 0.680224 0.680224
0.402785 0.402785 0.402785
0.390790 0.390790 0.390790
0.411858 0.411858 0.411858
0.448914 0.448914 0.448914
0.610357 0.610357 0.610357
0.688956 0.688956 0.688956
0.464729 0.464729 0.464729
0.454129 0.454129 0.454129
0.441910 0.441910 0.441910
0.463315 0.463315 0.463315
0.659123 0.659123 0.659123
0.746217 0.746217 0.746217
0.561458 0.561458 0.561458
0.551396 0.551396 0.551396
0.508608 0.508608 0.508608
0.600259 0.600259 0.600259
0.744467 0.744467 0.744467
0.841721 0.841721 0.841721
0.752557 0.752557 0.752557
0.751741 0.751741 0.751741
0.752395 0.752395 0.752395
0.764636 0.764636 0.764636
0.772967 0.772967 0.772967
0.870339 0.870339 0.870339
0.870730 0.870730 0.870730
0.871635 0.871635 0.871635
0.878394 0.878394 0.878394
0.889051 0.889051 0.889051
0.900388 0.900388 0.900388
0.916216 0.916216 0.916216
0.532752 0.532752 0.532753
0.535629 0.535629 0.535629
0.550034 0.550034 0.550034
0.576751 0.576751 0.576751
0.615327 0.615327 0.615327
0.689999 0.689999 0.689999
0.543907 0.543907 0.543907
0.545516 0.545516 0.545516
0.558849 0.558849 0.558849
0.584732 0.584732 0.584732
0.622961 0.622961 0.622961
0.698583 0.698583 0.698583
0.587790 0.587790 0.587790
0.589413 0.589413 0.589413
0.622215 0.622215 0.622215
0.640499 0.640499 0.640499
0.668304 0.668304 0.668304
0.753368 0.753368 0.753368
0.663652 0.663652 0.663652
0.664327 0.664327 0.664327
0.680572 0.680572 0.680572
0.738739 0.738739 0.738739
0.748281 0.748281 0.748281
0.844735 0.844735 0.844735
0.761506 0.761506 0.761506
0.761471 0.761471 0.761471
0.759743 0.759743 0.759743
0.767403 0.767403 0.767403
0.811587 0.811587 0.811587
0.889947 0.889947 0.889947
0.877355 0.877355 0.877355
0.877419 0.877419 0.877419
0.883894 0.883894 0.883894
0.892933 0.892933 0.892933
0.888544 0.888544 0.888544
0.887414 0.887414 0.887414
0.595548 0.595548 0.595548
0.598281 0.598281 0.598281
0.609076 0.609076 0.609076
0.630459 0.630459 0.630459
0.662693 0.662693 0.662693
0.703627 0.703627 0.703627
0.604223 0.604223 0.604223
0.609550 0.609550 0.609550
0.620337 0.620337 0.620337
0.640936 0.640936 0.640936
0.672202 0.672202 0.672202
0.711701 0.711701 0.711701
0.639398 0.639398 0.639398
0.644605 0.644605 0.644605
0.696510 0.696510 0.696510
0.711109 0.711109 0.711109
0.733513 0.733513 0.733513
0.763384 0.763384 0.763384
0.702446 0.702446 0.702446
0.705871 0.705871 0.705871
0.743763 0.743763 0.743763
0.827483 0.827483 0.827483
0.836156 0.836156 0.836156
0.848910 0.848910 0.848910
0.787244 0.787244 0.787244
0.788915 0.788915 0.788915
0.810217 0.810217 0.810217
0.856983 0.856983 0.856983
0.890724 0.890724 0.890724
0.889591 0.889591 0.889591
0.886593 0.886593 0.886593
0.887436 0.887436 0.887436
0.891834 0.891834 0.891834
0.898407 0.898407 0.898407
0.888469 0.888469 0.888469
0.877713 0.877713 0.877713
